; generated by PrusaSlicer 2.7.3+linux-x64-GTK3 on 2025-02-03 at 22:51:08 UTC

; 

; external perimeters extrusion width = 0.45mm
; perimeters extrusion width = 0.45mm
; infill extrusion width = 0.45mm
; solid infill extrusion width = 0.45mm
; top infill extrusion width = 0.40mm
; support material extrusion width = 0.35mm
; first layer extrusion width = 0.42mm

M73 P0 R96
M73 Q0 S99
M201 X1000 Y1000 Z200 E5000 ; sets maximum accelerations, mm/sec^2
M203 X200 Y200 Z12 E120 ; sets maximum feedrates, mm / sec
M204 S1250 T1250 ; sets acceleration (S) and retract acceleration (R), mm/sec^2
M205 X8.00 Y8.00 Z0.40 E4.50 ; sets the jerk limits, mm/sec
M205 S0 T0 ; sets the minimum extruding and travel feed rate, mm/sec

; printing object FED3_Sept2020_nose.stl id:0 copy 1
; stop printing object FED3_Sept2020_nose.stl id:0 copy 1
; printing object FED3_Sept2020_nose.stl id:0 copy 2
; stop printing object FED3_Sept2020_nose.stl id:0 copy 2
; printing object FED3_Sept2020_nose.stl id:0 copy 4
; stop printing object FED3_Sept2020_nose.stl id:0 copy 4
; printing object FED3_Sept2020_nose.stl id:0 copy 6
; stop printing object FED3_Sept2020_nose.stl id:0 copy 6
; printing object FED3_Sept2020_nose.stl id:0 copy 0
; stop printing object FED3_Sept2020_nose.stl id:0 copy 0
; printing object FED3_Sept2020_nose.stl id:0 copy 3
; stop printing object FED3_Sept2020_nose.stl id:0 copy 3
; printing object FED3_Sept2020_nose.stl id:0 copy 5
; stop printing object FED3_Sept2020_nose.stl id:0 copy 5
; printing object FED3_Sept2020_nose.stl id:0 copy 7
; stop printing object FED3_Sept2020_nose.stl id:0 copy 7

;TYPE:Custom
M862.3 P "MK3" ; printer model check
M862.1 P0.4 ; nozzle diameter check
M115 U3.9.2 ; tell printer latest fw version
G90 ; use absolute coordinates
M83 ; extruder relative mode
M104 S215 ; set extruder temp
M140 S60 ; set bed temp
M190 S60 ; wait for bed temp
M109 S215 ; wait for extruder temp
G28 W ; home all without mesh bed level
G80 ; mesh bed leveling
G1 Y-3.0 F1000.0 ; go outside print area
G92 E0.0
G1 X60.0 E9.0 F1000.0 ; intro line
G1 X100.0 E12.5 F1000.0 ; intro line
G92 E0.0
M221 S95

; Don't change E values below. Excessive value can damage the printer.
M907 E430 ; set extruder motor current
G21 ; set units to millimeters
G90 ; use absolute coordinates
M83 ; use relative distances for extrusion
M900 K0.05 ; Filament gcode LA 1.5
M900 K30 ; Filament gcode LA 1.0
M107
;LAYER_CHANGE
;Z:0.2
;HEIGHT:0.2
G1 E-.8 F2100
G1 Z.6 F10800
G1 X51.146 Y46.258
G1 Z.2
G1 E.8 F2100
M204 S1000
;TYPE:Skirt/Brim
;WIDTH:0.42
G1 F1200
G1 X52.206 Y45.398 E.0428
G1 X53.111 Y45.219 E.02893
G1 X139.959 Y45.219 E2.72306
G1 X141.47 Y45.76 E.05032
M73 Q0 S98
G1 X199.193 Y93.262 E2.34391
G1 X199.954 Y94.395 E.04279
M73 P0 R95
G1 X200.06 Y95.098 E.02229
G1 X200.01 Y162.407 E2.11043
G1 X199.617 Y163.714 E.04279
G1 X198.571 Y164.589 E.04276
G1 X197.633 Y164.781 E.03002
G1 X52.317 Y164.781 E4.55628
G1 X51.01 Y164.39 E.04277
G1 X50.134 Y163.344 E.04278
G1 X49.94 Y162.404 E.03009
G1 X49.99 Y95.095 E2.11043
G1 X50.734 Y47.558 E1.49067
G1 X51.128 Y46.315 E.04088
;WIPE_START
G1 F8640
G1 X51.146 Y46.258 E-.0138
G1 X52.206 Y45.398 E-.31518
G1 X53.111 Y45.219 E-.21302
G1 X54.228 Y45.219 E-.258
;WIPE_END
G1 Z.6 F10800
; printing object FED3_Sept2020_nose.stl id:0 copy 3
G1 X197.683 Y114.902
G1 Z.2
G1 E.8 F2100
;TYPE:Support material
G1 F1200
G1 X168.607 Y114.902 E.91166
G1 X168.607 Y95.098 E.62094
G1 X197.683 Y95.098 E.91166
G1 X197.683 Y114.846 E.61918
;WIPE_START
G1 F8640
G1 X197.683 Y111.381 E-.8
;WIPE_END
G1 Z.6 F10800
G1 X179.419 Y100.71
G1 Z.2
G1 E.8 F2100
G1 F1200
G1 X186.872 Y100.71 E.23368
G1 X187.193 Y101.031 E.01423
G1 X187.193 Y103.027 E.06258
G1 X186.872 Y103.348 E.01423
G1 X183.671 Y103.348 E.10037
G1 X183.485 Y103.162 E.00825
G1 X182.805 Y103.162 E.02132
G1 X182.619 Y103.348 E.00825
G1 X179.419 Y103.348 E.10033
G1 X179.098 Y103.027 E.01423
G1 X179.098 Y101.031 E.06258
G1 X179.379 Y100.75 E.01246
;WIPE_START
G1 F8640
G1 X179.098 Y101.031 E-.09176
G1 X179.098 Y103.027 E-.46088
G1 X179.419 Y103.348 E-.10482
G1 X180.036 Y103.348 E-.14254
;WIPE_END
G1 Z.6 F10800
G1 X196.971 Y114.733
G1 Z.2
G1 E.8 F2100
G1 F1200
G1 X196.971 Y95.437 E.60501
G1 X196.552 Y95.437 E.01314
G1 X196.552 Y114.563 E.59968
G1 X196.133 Y114.563 E.01314
G1 X196.133 Y95.437 E.59968
G1 X195.714 Y95.437 E.01314
G1 X195.714 Y114.563 E.59968
G1 X195.295 Y114.563 E.01314
G1 X195.295 Y95.437 E.59968
G1 X194.876 Y95.437 E.01314
G1 X194.876 Y114.563 E.59968
G1 X194.457 Y114.563 E.01314
G1 X194.457 Y95.437 E.59968
G1 X194.038 Y95.437 E.01314
G1 X194.038 Y114.563 E.59968
G1 X193.619 Y114.563 E.01314
G1 X193.619 Y95.437 E.59968
G1 X193.2 Y95.437 E.01314
G1 X193.2 Y114.563 E.59968
G1 X192.781 Y114.563 E.01314
G1 X192.781 Y95.437 E.59968
G1 X192.362 Y95.437 E.01314
G1 X192.362 Y114.563 E.59968
G1 X191.943 Y114.563 E.01314
G1 X191.943 Y95.437 E.59968
G1 X191.524 Y95.437 E.01314
G1 X191.524 Y114.563 E.59968
G1 X191.105 Y114.563 E.01314
G1 X191.105 Y95.437 E.59968
G1 X190.686 Y95.437 E.01314
G1 X190.686 Y114.563 E.59968
G1 X190.267 Y114.563 E.01314
G1 X190.268 Y95.437 E.59968
G1 X189.849 Y95.437 E.01314
G1 X189.849 Y114.563 E.59968
G1 X189.43 Y114.563 E.01314
M73 P1 R95
G1 X189.43 Y95.437 E.59968
G1 X189.011 Y95.437 E.01314
M73 Q1 S98
G1 X189.011 Y114.563 E.59968
G1 X188.592 Y114.563 E.01314
G1 X188.592 Y95.437 E.59968
G1 X188.173 Y95.437 E.01314
G1 X188.173 Y114.563 E.59968
G1 X187.754 Y114.563 E.01314
G1 X187.754 Y95.437 E.59968
G1 X187.335 Y95.437 E.01314
G1 X187.335 Y100.692 E.16477
G1 X187.013 Y100.37 E.01428
G1 X186.916 Y100.37 E.00304
G1 X186.916 Y95.437 E.15467
G1 X186.497 Y95.437 E.01314
G1 X186.497 Y100.37 E.15467
G1 X186.078 Y100.37 E.01314
G1 X186.078 Y95.437 E.15467
G1 X185.659 Y95.437 E.01314
G1 X185.659 Y100.37 E.15467
G1 X185.24 Y100.37 E.01314
G1 X185.24 Y95.437 E.15467
G1 X184.821 Y95.437 E.01314
G1 X184.821 Y100.37 E.15467
G1 X184.402 Y100.37 E.01314
G1 X184.402 Y95.437 E.15467
G1 X183.983 Y95.437 E.01314
G1 X183.983 Y100.37 E.15467
G1 X183.564 Y100.37 E.01314
G1 X183.564 Y95.437 E.15467
G1 X183.145 Y95.437 E.01314
G1 X183.145 Y100.37 E.15467
G1 X182.726 Y100.37 E.01314
G1 X182.726 Y95.437 E.15467
G1 X182.307 Y95.437 E.01314
G1 X182.307 Y100.37 E.15467
G1 X181.888 Y100.37 E.01314
G1 X181.888 Y95.437 E.15467
G1 X181.469 Y95.437 E.01314
G1 X181.469 Y100.37 E.15467
G1 X181.05 Y100.37 E.01314
G1 X181.05 Y95.437 E.15467
G1 X180.631 Y95.437 E.01314
G1 X180.631 Y100.37 E.15467
G1 X180.212 Y100.37 E.01314
G1 X180.212 Y95.437 E.15467
G1 X179.793 Y95.437 E.01314
G1 X179.793 Y100.37 E.15467
G1 X179.374 Y100.37 E.01314
G1 X179.374 Y95.437 E.15467
G1 X178.955 Y95.437 E.01314
G1 X178.955 Y100.693 E.1648
G1 X178.759 Y100.89 E.00871
M73 Q1 S97
G1 X178.759 Y103.168 E.07143
G1 X178.955 Y103.364 E.00869
G1 X178.955 Y114.563 E.35114
G1 X179.374 Y114.563 E.01314
G1 X179.374 Y103.687 E.34101
G1 X179.793 Y103.687 E.01314
G1 X179.793 Y114.563 E.34101
G1 X180.212 Y114.563 E.01314
G1 X180.212 Y103.687 E.34101
G1 X180.631 Y103.687 E.01314
G1 X180.631 Y114.563 E.34101
G1 X181.05 Y114.563 E.01314
M73 P1 R94
G1 X181.05 Y103.687 E.34101
G1 X181.469 Y103.687 E.01314
G1 X181.469 Y114.563 E.34101
G1 X181.888 Y114.563 E.01314
G1 X181.888 Y103.687 E.34101
G1 X182.307 Y103.687 E.01314
G1 X182.307 Y114.563 E.34101
G1 X182.726 Y114.563 E.01314
G1 X182.726 Y103.687 E.34101
G1 X182.946 Y103.502 E.00901
G1 X183.145 Y103.502 E.00624
G1 X183.145 Y114.563 E.34681
G1 X183.564 Y114.563 E.01314
G1 X183.564 Y103.687 E.34101
G1 X183.983 Y103.687 E.01314
G1 X183.983 Y114.563 E.34101
G1 X184.402 Y114.563 E.01314
G1 X184.402 Y103.687 E.34101
G1 X184.821 Y103.687 E.01314
G1 X184.821 Y114.563 E.34101
G1 X185.24 Y114.563 E.01314
G1 X185.24 Y103.687 E.34101
G1 X185.659 Y103.687 E.01314
G1 X185.659 Y114.563 E.34101
G1 X186.078 Y114.563 E.01314
G1 X186.078 Y103.687 E.34101
G1 X186.497 Y103.687 E.01314
G1 X186.497 Y114.563 E.34101
G1 X186.916 Y114.563 E.01314
G1 X186.916 Y103.687 E.34101
G1 X187.013 Y103.687 E.00304
G1 X187.335 Y103.365 E.01428
G1 X187.335 Y114.733 E.35644
G1 X187.335 Y114.733 F10800
G1 X178.536 Y114.733
G1 F1200
G1 X178.536 Y95.437 E.60501
G1 X178.117 Y95.437 E.01314
G1 X178.117 Y114.563 E.59968
G1 X177.698 Y114.563 E.01314
G1 X177.698 Y95.437 E.59968
G1 X177.279 Y95.437 E.01314
G1 X177.279 Y114.563 E.59968
G1 X176.86 Y114.563 E.01314
G1 X176.86 Y95.437 E.59968
G1 X176.441 Y95.437 E.01314
G1 X176.441 Y114.563 E.59968
G1 X176.022 Y114.563 E.01314
G1 X176.022 Y95.437 E.59968
G1 X175.603 Y95.437 E.01314
G1 X175.603 Y114.563 E.59968
G1 X175.184 Y114.563 E.01314
G1 X175.184 Y95.437 E.59968
G1 X174.765 Y95.437 E.01314
G1 X174.765 Y114.563 E.59968
G1 X174.346 Y114.563 E.01314
G1 X174.346 Y95.437 E.59968
G1 X173.927 Y95.437 E.01314
G1 X173.927 Y114.563 E.59968
G1 X173.508 Y114.563 E.01314
G1 X173.508 Y95.437 E.59968
G1 X173.089 Y95.437 E.01314
G1 X173.089 Y114.563 E.59968
G1 X172.67 Y114.563 E.01314
G1 X172.67 Y95.437 E.59968
G1 X172.251 Y95.437 E.01314
G1 X172.251 Y114.563 E.59968
G1 X171.833 Y114.563 E.01311
G1 X171.833 Y95.437 E.59968
G1 X171.414 Y95.437 E.01314
G1 X171.414 Y114.563 E.59968
G1 X170.995 Y114.563 E.01314
G1 X170.995 Y95.437 E.59968
G1 X170.576 Y95.437 E.01314
G1 X170.576 Y114.563 E.59968
G1 X170.157 Y114.563 E.01314
G1 X170.157 Y95.437 E.59968
G1 X169.738 Y95.437 E.01314
G1 X169.738 Y114.563 E.59968
G1 X169.319 Y114.563 E.01314
G1 X169.319 Y95.267 E.60501
;WIPE_START
G1 F8640
G1 X169.319 Y98.732 E-.8
;WIPE_END
G1 Z.6 F10800
G1 X180.055 Y102.391
G1 Z.2
G1 E.8 F2100
;TYPE:External perimeter
;WIDTH:0.419999
G1 F1200
G1 X180.055 Y101.667 E.0227
G1 X181.514 Y101.667 E.04575
;WIDTH:0.455346
G1 X181.595 Y101.685 E.00285
;WIDTH:0.490692
G1 X181.677 Y101.703 E.00313
;WIDTH:0.526038
G1 X181.759 Y101.72 E.00336
G1 X182.171 Y101.707 E.01656
;WIDTH:0.500166
G1 X184.119 Y101.707 E.07406
G1 X184.325 Y101.687 E.00787
;WIDTH:0.460083
G1 X184.531 Y101.667 E.00718
;WIDTH:0.419999
G1 X186.235 Y101.667 E.05343
G1 X186.235 Y102.029 E.01135
G1 X186.235 Y102.391 E.01135
G1 X184.306 Y102.391 E.06048
G1 X184.26 Y102.268 E.00412
;WIDTH:0.460083
G1 X184.189 Y102.217 E.00303
;WIDTH:0.500166
G1 X184.119 Y102.165 E.00332
G1 X182.171 Y102.165 E.07406
;WIDTH:0.525248
G1 X182.04 Y102.191 E.00536
;WIDTH:0.526038
G1 X181.95 Y102.338 E.00692
G1 X181.805 Y102.355 E.00586
;WIDTH:0.490692
G1 X181.659 Y102.373 E.00548
;WIDTH:0.455346
G1 X181.514 Y102.391 E.00501
;WIDTH:0.419999
G1 X180.115 Y102.391 E.04386
;WIPE_START
G1 F8640
G1 X180.055 Y102.391 E-.01385
G1 X180.055 Y101.667 E-.16717
G1 X181.514 Y101.667 E-.33689
G1 X181.595 Y101.685 E-.01916
G1 X181.677 Y101.703 E-.01938
G1 X181.759 Y101.72 E-.01934
G1 X182.171 Y101.707 E-.09518
G1 X182.73 Y101.707 E-.12903
;WIPE_END
G1 Z.6 F10800
G1 X184.531 Y102.029
G1 Z.2
G1 E.8 F2100
;TYPE:Perimeter
;WIDTH:0.389064
G1 F1200
G1 X185.874 Y102.029 E.03865
;WIPE_START
G1 F8640
G1 X184.531 Y102.029 E-.3101
;WIPE_END
G1 E-.4899 F2100
G1 Z.6 F10800
G1 X180.417 Y102.029
G1 Z.2
G1 E.8 F2100
G1 F1200
G1 X181.514 Y102.029 E.03157
;WIPE_START
G1 F8640
G1 X180.417 Y102.029 E-.2533
;WIPE_END
G1 E-.5467 F2100
G1 Z.6 F10800
; stop printing object FED3_Sept2020_nose.stl id:0 copy 3
; printing object FED3_Sept2020_nose.stl id:0 copy 2
G1 X197.633 Y162.404
G1 Z.2
G1 E.8 F2100
;TYPE:Support material
;WIDTH:0.42
G1 F1200
G1 X168.557 Y162.404 E.91166
G1 X168.557 Y142.6 E.62094
G1 X197.633 Y142.6 E.91166
G1 X197.633 Y162.348 E.61918
;WIPE_START
G1 F8640
G1 X197.633 Y158.883 E-.8
;WIPE_END
G1 Z.6 F10800
G1 X179.368 Y154.154
G1 Z.2
G1 E.8 F2100
G1 F1200
G1 X182.57 Y154.154 E.1004
G1 X182.755 Y154.34 E.00823
G1 X183.435 Y154.34 E.02132
G1 X183.621 Y154.154 E.00825
G1 X186.822 Y154.154 E.10037
G1 X187.142 Y154.475 E.01421
G1 X187.142 Y156.472 E.06261
G1 X186.822 Y156.792 E.01419
G1 X179.368 Y156.792 E.23371
G1 X179.047 Y156.472 E.01421
G1 X179.047 Y154.475 E.06261
G1 X179.328 Y154.194 E.01246
;WIPE_START
G1 F8640
G1 X179.047 Y154.475 E-.09176
G1 X179.047 Y156.472 E-.46111
G1 X179.368 Y156.792 E-.10466
G1 X179.985 Y156.792 E-.14247
;WIPE_END
G1 Z.6 F10800
G1 X196.921 Y162.235
G1 Z.2
G1 E.8 F2100
G1 F1200
G1 X196.922 Y142.939 E.60501
G1 X196.503 Y142.939 E.01314
M73 P2 R94
G1 X196.503 Y162.065 E.59968
G1 X196.084 Y162.065 E.01314
G1 X196.084 Y142.939 E.59968
G1 X195.665 Y142.939 E.01314
G1 X195.665 Y162.065 E.59968
G1 X195.246 Y162.065 E.01314
M73 Q2 S97
G1 X195.246 Y142.939 E.59968
G1 X194.827 Y142.939 E.01314
G1 X194.827 Y162.065 E.59968
G1 X194.408 Y162.065 E.01314
G1 X194.408 Y142.939 E.59968
G1 X193.989 Y142.939 E.01314
G1 X193.989 Y162.065 E.59968
G1 X193.57 Y162.065 E.01314
G1 X193.57 Y142.939 E.59968
G1 X193.151 Y142.939 E.01314
G1 X193.151 Y162.065 E.59968
G1 X192.732 Y162.065 E.01314
G1 X192.732 Y142.939 E.59968
G1 X192.313 Y142.939 E.01314
G1 X192.313 Y162.065 E.59968
G1 X191.894 Y162.065 E.01314
G1 X191.894 Y142.939 E.59968
G1 X191.475 Y142.939 E.01314
G1 X191.475 Y162.065 E.59968
G1 X191.056 Y162.065 E.01314
G1 X191.056 Y142.939 E.59968
G1 X190.637 Y142.939 E.01314
M73 Q2 S96
G1 X190.637 Y162.065 E.59968
G1 X190.218 Y162.065 E.01314
G1 X190.218 Y142.939 E.59968
G1 X189.799 Y142.939 E.01314
G1 X189.799 Y162.065 E.59968
G1 X189.38 Y162.065 E.01314
M73 P2 R93
G1 X189.38 Y142.939 E.59968
G1 X188.961 Y142.939 E.01314
G1 X188.961 Y162.065 E.59968
G1 X188.542 Y162.065 E.01314
G1 X188.542 Y142.939 E.59968
G1 X188.123 Y142.939 E.01314
G1 X188.123 Y162.065 E.59968
G1 X187.704 Y162.065 E.01314
G1 X187.704 Y142.939 E.59968
G1 X187.285 Y142.939 E.01314
G1 X187.285 Y154.138 E.35114
G1 X186.962 Y153.815 E.01432
G1 X186.866 Y153.815 E.00301
G1 X186.866 Y142.939 E.34101
G1 X186.447 Y142.939 E.01314
G1 X186.447 Y153.815 E.34101
G1 X186.028 Y153.815 E.01314
G1 X186.028 Y142.939 E.34101
G1 X185.609 Y142.939 E.01314
G1 X185.609 Y153.815 E.34101
G1 X185.19 Y153.815 E.01314
G1 X185.19 Y142.939 E.34101
G1 X184.771 Y142.939 E.01314
G1 X184.771 Y153.815 E.34101
G1 X184.352 Y153.815 E.01314
G1 X184.352 Y142.939 E.34101
G1 X183.933 Y142.939 E.01314
G1 X183.933 Y153.815 E.34101
G1 X183.514 Y153.815 E.01314
G1 X183.514 Y142.939 E.34101
G1 X183.095 Y142.939 E.01314
G1 X183.095 Y154.001 E.34684
G1 X182.896 Y154.001 E.00624
G1 X182.676 Y153.815 E.00903
G1 X182.676 Y142.939 E.34101
G1 X182.257 Y142.939 E.01314
G1 X182.257 Y153.815 E.34101
G1 X181.838 Y153.815 E.01314
G1 X181.838 Y142.939 E.34101
G1 X181.419 Y142.939 E.01314
G1 X181.419 Y153.815 E.34101
G1 X181 Y153.815 E.01314
G1 X181 Y142.939 E.34101
G1 X180.581 Y142.939 E.01314
G1 X180.581 Y153.815 E.34101
G1 X180.162 Y153.815 E.01314
G1 X180.162 Y142.939 E.34101
G1 X179.743 Y142.939 E.01314
G1 X179.743 Y153.815 E.34101
G1 X179.324 Y153.815 E.01314
G1 X179.324 Y142.939 E.34101
G1 X178.905 Y142.939 E.01314
G1 X178.905 Y154.137 E.35111
G1 X178.708 Y154.334 E.00874
G1 X178.708 Y156.612 E.07143
G1 X178.905 Y156.81 E.00876
G1 X178.905 Y162.065 E.16477
G1 X179.324 Y162.065 E.01314
G1 X179.324 Y157.132 E.15467
G1 X179.743 Y157.132 E.01314
G1 X179.743 Y162.065 E.15467
G1 X180.162 Y162.065 E.01314
G1 X180.162 Y157.132 E.15467
G1 X180.581 Y157.132 E.01314
G1 X180.581 Y162.065 E.15467
G1 X181 Y162.065 E.01314
G1 X181 Y157.132 E.15467
G1 X181.419 Y157.132 E.01314
G1 X181.419 Y162.065 E.15467
G1 X181.838 Y162.065 E.01314
G1 X181.838 Y157.132 E.15467
G1 X182.257 Y157.132 E.01314
G1 X182.257 Y162.065 E.15467
G1 X182.676 Y162.065 E.01314
G1 X182.676 Y157.132 E.15467
G1 X183.095 Y157.132 E.01314
G1 X183.095 Y162.065 E.15467
G1 X183.514 Y162.065 E.01314
G1 X183.514 Y157.132 E.15467
G1 X183.933 Y157.132 E.01314
G1 X183.933 Y162.065 E.15467
G1 X184.352 Y162.065 E.01314
G1 X184.352 Y157.132 E.15467
G1 X184.771 Y157.132 E.01314
G1 X184.771 Y162.065 E.15467
G1 X185.19 Y162.065 E.01314
G1 X185.19 Y157.132 E.15467
G1 X185.609 Y157.132 E.01314
G1 X185.609 Y162.065 E.15467
G1 X186.028 Y162.065 E.01314
G1 X186.028 Y157.132 E.15467
G1 X186.447 Y157.132 E.01314
G1 X186.447 Y162.065 E.15467
G1 X186.866 Y162.065 E.01314
G1 X186.866 Y157.132 E.15467
G1 X186.962 Y157.132 E.00301
G1 X187.285 Y156.809 E.01432
G1 X187.285 Y162.235 E.17013
G1 X187.285 Y162.235 F10800
G1 X178.487 Y162.235
G1 F1200
