; generated by PrusaSlicer 2.7.3+linux-x64-GTK3 on 2025-02-03 at 22:43:22 UTC

; 

; external perimeters extrusion width = 0.45mm
; perimeters extrusion width = 0.45mm
; infill extrusion width = 0.45mm
; solid infill extrusion width = 0.45mm
; top infill extrusion width = 0.40mm
; first layer extrusion width = 0.42mm

M73 P0 R303
M73 Q0 S307
M201 X1000 Y1000 Z200 E5000 ; sets maximum accelerations, mm/sec^2
M203 X200 Y200 Z12 E120 ; sets maximum feedrates, mm / sec
M204 S1250 T1250 ; sets acceleration (S) and retract acceleration (R), mm/sec^2
M205 X8.00 Y8.00 Z0.40 E4.50 ; sets the jerk limits, mm/sec
M205 S0 T0 ; sets the minimum extruding and travel feed rate, mm/sec

; printing object FED3_Base_June2021.stl id:0 copy 0
; stop printing object FED3_Base_June2021.stl id:0 copy 0
; printing object FED3_Base_June2021.stl id:0 copy 1
; stop printing object FED3_Base_June2021.stl id:0 copy 1
; printing object FED3_Base_June2021.stl id:0 copy 2
; stop printing object FED3_Base_June2021.stl id:0 copy 2

;TYPE:Custom
M862.3 P "MK3" ; printer model check
M862.1 P0.4 ; nozzle diameter check
M115 U3.9.2 ; tell printer latest fw version
G90 ; use absolute coordinates
M83 ; extruder relative mode
M104 S215 ; set extruder temp
M140 S60 ; set bed temp
M190 S60 ; wait for bed temp
M109 S215 ; wait for extruder temp
G28 W ; home all without mesh bed level
G80 ; mesh bed leveling
G1 Y-3.0 F1000.0 ; go outside print area
G92 E0.0
G1 X60.0 E9.0 F1000.0 ; intro line
G1 X100.0 E12.5 F1000.0 ; intro line
G92 E0.0
M221 S95

; Don't change E values below. Excessive value can damage the printer.
M907 E430 ; set extruder motor current
G21 ; set units to millimeters
G90 ; use absolute coordinates
M83 ; use relative distances for extrusion
M900 K0.05 ; Filament gcode LA 1.5
M900 K30 ; Filament gcode LA 1.0
M107
;LAYER_CHANGE
;Z:0.2
;HEIGHT:0.2
G1 E-.8 F2100
G1 Z.6 F10800
G1 X26.436 Y59.863
G1 Z.2
G1 E.8 F2100
M204 S1000
;TYPE:Skirt/Brim
;WIDTH:0.42
G1 F1200
G1 X115.507 Y20.528 E3.05296
G1 X116.467 Y20.325 E.03077
M73 Q0 S306
G1 X228.331 Y20.325 E3.50742
G1 X230.012 Y21.021 E.05705
G1 X233.058 Y24.067 E.13506
G1 X233.754 Y25.748 E.05705
G1 X233.754 Y128.006 E3.20623
G1 X232.567 Y181.906 E1.69041
G1 X232.448 Y182.599 E.02205
G1 X231.656 Y184.997 E.07918
G1 X231.08 Y185.933 E.03446
G1 X228.034 Y188.979 E.13506
G1 X226.353 Y189.675 E.05705
G1 X118.284 Y189.67 E3.38843
G1 X20.907 Y183.054 E3.06023
G1 X20.323 Y182.94 E.01866
G1 X17.925 Y182.148 E.07918
G1 X16.989 Y181.572 E.03446
G1 X13.943 Y178.526 E.13506
G1 X13.247 Y176.845 E.05705
G1 X13.247 Y68.937 E3.38338
G1 X13.943 Y67.256 E.05705
G1 X16.989 Y64.21 E.13506
G1 X17.71 Y63.716 E.0274
G1 X26.381 Y59.887 E.2972
;WIPE_START
G1 F8640
G1 X26.436 Y59.863 E-.01386
G1 X29.55 Y58.488 E-.78614
;WIPE_END
G1 Z.6 F10800
G1 X26.381 Y65.431
G1 Z.2
G1 E.8 F2100
G1 F1200
G1 X73.902 Y65.431 E1.48999
G1 X74.333 Y65.05 E.01804
G1 X75.981 Y64.301 E.05676
G1 X76.788 Y64.199 E.0255
G1 X80.656 Y64.203 E.12128
G1 X81.674 Y64.397 E.03249
G1 X82.657 Y64.815 E.03349
G1 X83.851 Y65.783 E.04819
G1 X84.729 Y67.11 E.04989
G1 X85.136 Y68.655 E.0501
G1 X85.106 Y82.032 E.41943
G1 X84.642 Y83.548 E.04971
G1 X84.112 Y84.37 E.03067
M73 P0 R302
G1 X83.225 Y85.26 E.0394
G1 X82.935 Y85.45 E.01087
G1 X82.935 Y103.637 E.57024
G1 X83.427 Y104.006 E.01928
G1 X84.163 Y104.788 E.03367
G1 X84.783 Y105.871 E.03913
G1 X85.135 Y107.282 E.0456
G1 X85.135 Y177.158 E2.19091
G1 X84.507 Y179.137 E.0651
G1 X84.006 Y179.812 E.02636
G1 X83.066 Y180.701 E.04057
G1 X82.224 Y181.177 E.03033
G1 X81.324 Y181.484 E.02982
G1 X76.686 Y181.584 E.14546
G1 X75.033 Y181.14 E.05367
G1 X74.265 Y180.691 E.02789
G1 X73.942 Y180.396 E.01372
G1 X22.747 Y180.396 E1.60518
G1 X21.188 Y179.974 E.05064
G1 X20.485 Y179.573 E.02538
G1 X19.805 Y179.514 E.0214
G1 X18.343 Y178.966 E.04895
G1 X17.674 Y178.468 E.02615
G1 X16.682 Y177.381 E.04614
G1 X16.225 Y176.462 E.03218
G1 X15.911 Y175.15 E.0423
G1 X15.911 Y70.602 E3.27803
G1 X16.528 Y68.643 E.0644
G1 X16.965 Y68.032 E.02355
G1 X17.605 Y67.35 E.02932
G1 X18.93 Y66.539 E.04871
G1 X20.157 Y66.21 E.03983
G1 X20.601 Y66.187 E.01394
G1 X21.245 Y65.829 E.0231
G1 X22.749 Y65.431 E.04878
G1 X26.321 Y65.431 E.112
G1 X26.321 Y65.431 F10800
G1 X26.321 Y65.808
G1 F1200
G1 X74.05 Y65.808 E1.49651
G1 X74.519 Y65.38 E.01991
G1 X76.058 Y64.672 E.05312
G1 X76.8 Y64.576 E.02346
G1 X80.637 Y64.58 E.12031
G1 X81.581 Y64.763 E.03015
G1 X82.483 Y65.151 E.03079
G1 X83.589 Y66.056 E.04481
G1 X84.397 Y67.29 E.04625
G1 X84.759 Y68.678 E.04498
G1 X84.729 Y82.003 E.4178
G1 X84.311 Y83.367 E.04473
G1 X83.83 Y84.118 E.02796
G1 X82.975 Y84.978 E.03802
G1 X82.558 Y85.238 E.01541
G1 X82.558 Y103.827 E.58285
G1 X83.165 Y104.279 E.02373
G1 X83.848 Y104.997 E.03107
G1 X84.425 Y105.99 E.03601
G1 X84.758 Y107.306 E.04256
G1 X84.758 Y177.129 E2.18925
G1 X84.185 Y178.938 E.0595
M73 Q0 S305
G1 X83.734 Y179.549 E.02381
G1 X82.825 Y180.411 E.03928
G1 X82.057 Y180.839 E.02757
G1 X81.231 Y181.117 E.02733
G1 X76.705 Y181.207 E.14194
G1 X75.202 Y180.802 E.04881
G1 X74.475 Y180.377 E.0264
G1 X74.092 Y180.019 E.01644
G1 X22.773 Y180.019 E1.60907
G1 X21.313 Y179.617 E.04748
G1 X20.6 Y179.203 E.02585
G1 X19.91 Y179.151 E.0217
G1 X18.545 Y178.647 E.04562
G1 X17.938 Y178.198 E.02367
G1 X17.007 Y177.187 E.04309
G1 X16.586 Y176.351 E.02935
G1 X16.288 Y175.127 E.0395
G1 X16.288 Y70.631 E3.2764
G1 X16.852 Y68.837 E.05896
G1 X17.249 Y68.281 E.02142
G1 X17.862 Y67.627 E.02811
G1 X19.101 Y66.876 E.04543
G1 X20.231 Y66.581 E.03662
G1 X20.708 Y66.561 E.01497
G1 X21.367 Y66.186 E.02377
G1 X22.775 Y65.808 E.04571
G1 X26.261 Y65.808 E.1093
G1 X26.261 Y65.808 F10800
G1 X26.261 Y66.185
G1 F1200
G1 X74.201 Y66.185 E1.50313
G1 X74.708 Y65.708 E.02183
G1 X76.136 Y65.042 E.0494
G1 X76.812 Y64.953 E.02138
G1 X80.618 Y64.957 E.11933
G1 X81.488 Y65.129 E.02781
G1 X82.308 Y65.486 E.02804
G1 X83.327 Y66.328 E.04145
G1 X84.04 Y67.416 E.04079
G1 X84.382 Y68.703 E.04175
G1 X84.352 Y81.974 E.4161
G1 X83.959 Y83.228 E.0412
G1 X83.525 Y83.895 E.02495
G1 X82.725 Y84.694 E.03545
G1 X82.125 Y85.059 E.02202
G1 X82.181 Y85.328 E.00862
G1 X82.181 Y103.766 E.57811
G1 X82.125 Y104.036 E.00865
G1 X82.905 Y104.552 E.02932
G1 X83.535 Y105.208 E.02852
G1 X84.067 Y106.111 E.03286
G1 X84.381 Y107.33 E.03947
G1 X84.381 Y177.1 E2.18759
G1 X83.862 Y178.741 E.05396
G1 X83.461 Y179.289 E.02129
G1 X82.619 Y180.094 E.03652
G1 X81.919 Y180.487 E.02517
G1 X81.139 Y180.75 E.02581
G1 X76.725 Y180.829 E.13842
G1 X75.37 Y180.464 E.044
G1 X74.685 Y180.063 E.02489
G1 X74.244 Y179.642 E.01912
G1 X22.799 Y179.642 E1.61302
G1 X21.439 Y179.261 E.04428
G1 X20.714 Y178.832 E.02641
G1 X20.012 Y178.787 E.02206
G1 X18.746 Y178.326 E.04224
G1 X18.202 Y177.928 E.02113
G1 X17.33 Y176.992 E.04011
G1 X16.947 Y176.239 E.02649
G1 X16.665 Y175.104 E.03667
G1 X16.665 Y70.66 E3.27477
G1 X17.177 Y69.031 E.05354
G1 X18.119 Y67.905 E.04603
G1 X19.271 Y67.214 E.04212
G1 X20.303 Y66.951 E.03339
G1 X20.815 Y66.935 E.01606
G1 X21.491 Y66.543 E.0245
G1 X22.8 Y66.185 E.04255
G1 X26.201 Y66.185 E.10664
G1 X26.201 Y66.185 F10800
G1 X26.201 Y66.562
G1 F1200
G1 X74.356 Y66.562 E1.50987
G1 X74.899 Y66.034 E.02375
G1 X76.216 Y65.411 E.04568
G1 X76.824 Y65.331 E.01923
G1 X80.598 Y65.334 E.11833
G1 X81.392 Y65.494 E.0254
G1 X82.131 Y65.82 E.02533
G1 X83.062 Y66.599 E.03806
G1 X83.707 Y67.595 E.03721
G1 X84.004 Y68.726 E.03666
G1 X83.975 Y81.943 E.41441
G1 X83.608 Y83.087 E.03767
G1 X83.222 Y83.67 E.02192
G1 X82.477 Y84.409 E.0329
G1 X81.687 Y84.879 E.02882
G1 X81.804 Y85.354 E.01534
G1 X81.804 Y103.74 E.57648
G1 X81.672 Y104.272 E.01719
G1 X82.142 Y104.458 E.01585
G1 X82.669 Y104.846 E.02052
G1 X83.223 Y105.421 E.02504
G1 X83.709 Y106.234 E.0297
G1 X84.004 Y107.355 E.03634
G1 X84.004 Y177.071 E2.1859
G1 X83.539 Y178.544 E.04843
G1 X83.188 Y179.028 E.01875
G1 X82.376 Y179.804 E.03522
G1 X81.753 Y180.149 E.02233
G1 X81.047 Y180.384 E.02333
G1 X76.746 Y180.452 E.13487
G1 X75.539 Y180.126 E.0392
G1 X74.896 Y179.75 E.02335
G1 X74.399 Y179.265 E.02177
G1 X22.826 Y179.265 E1.61704
G1 X21.567 Y178.906 E.04105
M73 P0 R301
G1 X20.877 Y178.462 E.02573
G1 X20.112 Y178.423 E.02402
G1 X18.945 Y178.005 E.03887
G1 X18.463 Y177.656 E.01866
G1 X17.653 Y176.794 E.03709
G1 X17.307 Y176.124 E.02364
G1 X17.042 Y175.08 E.03377
G1 X17.042 Y70.689 E3.27311
G1 X17.502 Y69.224 E.04815
G1 X18.375 Y68.183 E.0426
G1 X19.438 Y67.553 E.03874
G1 X20.371 Y67.323 E.03013
G1 X20.922 Y67.31 E.01728
G1 X21.618 Y66.899 E.02534
G1 X22.826 Y66.562 E.03932
G1 X26.141 Y66.562 E.10394
G1 X26.141 Y66.562 F10800
G1 X26.141 Y66.94
G1 F1200
G1 X74.514 Y66.94 E1.5167
G1 X75.093 Y66.359 E.02572
G1 X76.296 Y65.781 E.04185
G1 X76.837 Y65.708 E.01712
G1 X80.58 Y65.711 E.11736
G1 X81.259 Y65.848 E.02172
G1 X81.954 Y66.153 E.0238
G1 X82.797 Y66.868 E.03466
G1 X83.351 Y67.722 E.03192
G1 X83.627 Y68.751 E.0334
G1 X83.598 Y81.912 E.41265
G1 X83.259 Y82.943 E.03403
G1 X82.921 Y83.443 E.01892
G1 X82.23 Y84.124 E.03042
G1 X81.647 Y84.464 E.02116
G1 X81.222 Y84.607 E.01406
G1 X81.427 Y85.38 E.02507
G1 X81.427 Y103.714 E.57485
G1 X81.216 Y104.508 E.02576
G1 X81.941 Y104.778 E.02426
G1 X82.433 Y105.141 E.01917
G1 X82.913 Y105.635 E.0216
G1 X83.352 Y106.359 E.02655
G1 X83.627 Y107.38 E.03315
G1 X83.627 Y177.042 E2.1842
G1 X83.215 Y178.349 E.04297
G1 X82.913 Y178.77 E.01625
G1 X82.17 Y179.487 E.03237
G1 X81.616 Y179.797 E.0199
G1 X80.956 Y180.017 E.02181
G1 X76.767 Y180.075 E.13136
G1 X75.708 Y179.788 E.0344
G1 X75.108 Y179.437 E.0218
G1 X74.555 Y178.888 E.02443
G1 X22.853 Y178.888 E1.62108
G1 X21.698 Y178.551 E.03772
G1 X21.029 Y178.09 E.02547
G1 X20.208 Y178.057 E.02576
G1 X19.142 Y177.683 E.03542
G1 X18.723 Y177.382 E.01618
G1 X17.974 Y176.595 E.03406
G1 X17.666 Y176.007 E.02081
G1 X17.419 Y175.055 E.03084
G1 X17.419 Y70.717 E3.27144
G1 X17.828 Y69.416 E.04276
M73 Q0 S304
G1 X18.631 Y68.461 E.03912
G1 X19.603 Y67.893 E.0353
G1 X20.437 Y67.695 E.02688
G1 X21.082 Y67.686 E.02023
G1 X21.745 Y67.255 E.02479
G1 X22.853 Y66.94 E.03612
G1 X26.081 Y66.94 E.10121
G1 X26.081 Y66.94 F10800
G1 X26.081 Y67.317
G1 F1200
G1 X74.676 Y67.317 E1.52366
G1 X75.29 Y66.682 E.0277
G1 X76.379 Y66.15 E.038
G1 X76.85 Y66.085 E.01491
G1 X80.56 Y66.088 E.11632
G1 X81.162 Y66.213 E.01928
G1 X81.774 Y66.486 E.02101
G1 X82.529 Y67.135 E.03122
G1 X83.017 Y67.9 E.02845
G1 X83.25 Y68.774 E.02836
G1 X83.221 Y81.879 E.4109
G1 X82.911 Y82.797 E.03038
G1 X82.643 Y83.188 E.01486
G1 X82.018 Y83.811 E.02767
G1 X81.476 Y84.128 E.01969
G1 X80.759 Y84.356 E.02359
G1 X81.05 Y85.406 E.03416
G1 X81.05 Y103.687 E.57319
G1 X80.757 Y104.746 E.03445
G1 X81.742 Y105.099 E.03281
G1 X82.628 Y105.883 E.03709
G1 X82.996 Y106.485 E.02212
G1 X83.25 Y107.406 E.02996
G1 X83.25 Y177.014 E2.18251
G1 X82.89 Y178.156 E.03754
G1 X82.638 Y178.511 E.01365
G1 X81.927 Y179.198 E.031
G1 X81.452 Y179.457 E.01696
G1 X80.866 Y179.649 E.01933
G1 X76.789 Y179.697 E.12784
G1 X75.877 Y179.449 E.02963
G1 X75.32 Y179.124 E.02022
G1 X74.714 Y178.511 E.02703
G1 X22.881 Y178.511 E1.62519
G1 X21.831 Y178.198 E.03435
G1 X21.182 Y177.717 E.02533
G1 X20.302 Y177.691 E.0276
G1 X19.337 Y177.359 E.032
G1 X18.982 Y177.107 E.01365
G1 X18.293 Y176.394 E.03109
G1 X18.024 Y175.888 E.01797
G1 X17.796 Y175.03 E.02784
G1 X17.796 Y70.746 E3.26975
G1 X18.154 Y69.608 E.03741
G1 X18.887 Y68.74 E.03562
G1 X19.765 Y68.235 E.03176
G1 X20.499 Y68.067 E.02361
G1 X21.231 Y68.062 E.02295
G1 X21.876 Y67.609 E.02471
G1 X22.88 Y67.317 E.03278
G1 X26.021 Y67.317 E.09848
G1 X26.021 Y67.317 F10800
G1 X26.021 Y67.694
G1 F1200
G1 X74.841 Y67.694 E1.53072
G1 X75.489 Y67.004 E.02968
G1 X76.463 Y66.519 E.03412
G1 X76.863 Y66.462 E.01267
G1 X80.539 Y66.466 E.11526
G1 X81.063 Y66.577 E.01679
G1 X81.592 Y66.817 E.01821
G1 X82.261 Y67.401 E.02784
G1 X82.661 Y68.027 E.02329
G1 X82.873 Y68.8 E.02513
G1 X82.844 Y81.846 E.40905
G1 X82.564 Y82.646 E.02658
G1 X81.806 Y83.498 E.03576
G1 X81.305 Y83.791 E.0182
G1 X80.702 Y83.977 E.01979
G1 X80.052 Y83.998 E.02039
G1 X80.438 Y84.609 E.02266
G1 X80.673 Y85.433 E.02687
G1 X80.673 Y103.66 E.57149
G1 X80.438 Y104.484 E.02687
G1 X80.058 Y105.093 E.02251
G1 X80.665 Y105.114 E.01904
G1 X81.544 Y105.422 E.0292
G1 X81.915 Y105.69 E.01435
G1 X82.343 Y106.131 E.01927
G1 X82.641 Y106.614 E.01779
G1 X82.873 Y107.433 E.02669
G1 X82.873 Y176.985 E2.18075
G1 X82.564 Y177.964 E.03219
G1 X81.722 Y178.881 E.03903
G1 X80.776 Y179.282 E.03222
G1 X76.812 Y179.32 E.12429
G1 X76.042 Y179.11 E.02502
G1 X75.57 Y178.84 E.01705
G1 X74.871 Y178.134 E.03115
G1 X22.908 Y178.134 E1.62926
G1 X22.01 Y177.865 E.02939
G1 X21.336 Y177.342 E.02675
G1 X20.394 Y177.324 E.02954
G1 X19.529 Y177.034 E.02861
G1 X18.611 Y176.189 E.03912
G1 X18.382 Y175.767 E.01505
G1 X18.173 Y175.004 E.0248
G1 X18.173 Y70.775 E3.26803
G1 X18.48 Y69.798 E.03211
M73 P0 R300
G1 X19.141 Y69.02 E.03201
G1 X19.924 Y68.578 E.02819
G1 X20.558 Y68.44 E.02034
G1 X21.382 Y68.44 E.02584
G1 X22.01 Y67.963 E.02473
G1 X22.908 Y67.694 E.02939
G1 X25.961 Y67.694 E.09572
G1 X25.961 Y67.694 F10800
G1 X25.961 Y68.071
G1 F1200
G1 X75.071 Y68.071 E1.53981
G1 X75.691 Y67.324 E.03044
G1 X76.549 Y66.887 E.03019
G1 X76.877 Y66.839 E.01039
G1 X80.517 Y66.843 E.11413
G1 X80.96 Y66.94 E.01422
G1 X81.407 Y67.147 E.01545
G1 X81.991 Y67.665 E.02448
G1 X82.307 Y68.158 E.01836
G1 X82.496 Y68.826 E.02177
G1 X82.477 Y81.754 E.40535
G1 X82.238 Y82.456 E.02325
G1 X82.083 Y82.682 E.00859
G1 X81.556 Y83.215 E.0235
G1 X81.174 Y83.437 E.01385
G1 X80.619 Y83.608 E.01821
G1 X79.043 Y83.622 E.04942
G1 X79.791 Y84.299 E.03163
G1 X80.085 Y84.745 E.01675
G1 X80.296 Y85.461 E.0234
G1 X80.296 Y103.632 E.56974
G1 X80.085 Y104.348 E.0234
G1 X79.803 Y104.782 E.01623
G1 X79.079 Y105.48 E.03153
G1 X80.573 Y105.482 E.04684
G1 X81.392 Y105.768 E.0272
G1 X82.034 Y106.348 E.02713
G1 X82.306 Y106.79 E.01627
G1 X82.496 Y107.459 E.02181
G1 X82.496 Y176.956 E2.17903
G1 X82.237 Y177.774 E.0269
G1 X81.514 Y178.565 E.0336
G1 X80.687 Y178.914 E.02814
G1 X76.837 Y178.943 E.12072
G1 X76.169 Y178.754 E.02177
G1 X75.783 Y178.528 E.01402
G1 X75.103 Y177.756 E.03226
G1 X22.936 Y177.756 E1.63566
G1 X22.189 Y177.532 E.02445
G1 X21.49 Y176.965 E.02822
G1 X20.482 Y176.956 E.03161
G1 X19.719 Y176.707 E.02517
G1 X18.927 Y175.982 E.03367
G1 X18.738 Y175.641 E.01222
G1 X18.55 Y174.977 E.02164
G1 X18.55 Y70.804 E3.26627
G1 X18.808 Y69.986 E.02689
M73 P1 R300
M73 Q1 S304
G1 X19.395 Y69.3 E.02831
G1 X20.081 Y68.922 E.02456
G1 X20.577 Y68.817 E.0159
G1 X21.536 Y68.817 E.03007
G1 X22.189 Y68.295 E.02621
G1 X22.936 Y68.071 E.02445
G1 X25.901 Y68.071 E.09297
;WIPE_START
G1 F8640
G1 X25.961 Y68.071 E-.01385
G1 X29.366 Y68.071 E-.78615
;WIPE_END
G1 Z.6 F10800
G1 X73.421 Y104.587
G1 Z.2
G1 E.8 F2100
G1 F1200
G1 X73.689 Y104.506 E.00878
G1 X73.867 Y104.774 E.01009
G1 X74.571 Y105.474 E.03113
G1 X73.421 Y105.472 E.03606
G1 X73.421 Y104.647 E.02587
;WIPE_START
G1 F8640
G1 X73.421 Y104.587 E-.01385
G1 X73.689 Y104.506 E-.06465
G1 X73.867 Y104.774 E-.07429
G1 X74.571 Y105.474 E-.22924
G1 X73.421 Y105.472 E-.26554
G1 X73.421 Y104.812 E-.15243
;WIPE_END
G1 Z.6 F10800
G1 X73.688 Y84.589
G1 Z.2
G1 E.8 F2100
G1 F1200
G1 X73.421 Y84.507 E.00876
G1 X73.421 Y83.625 E.02765
G1 X74.59 Y83.623 E.03665
G1 X73.873 Y84.313 E.0312
G1 X73.721 Y84.539 E.00854
G1 X73.721 Y84.539 F10800
G1 X74.041 Y84.743
G1 F1200
G1 X74.153 Y84.568 E.00651
G1 X74.552 Y84.183 E.01738
G1 X75.07 Y83.921 E.0182
G1 X75.428 Y83.85 E.01144
G1 X78.295 Y83.854 E.08989
G1 X79.019 Y84.109 E.02407
M73 Q1 S303
G1 X79.519 Y84.561 E.02113
G1 X79.753 Y84.925 E.01357
G1 X79.919 Y85.488 E.0184
G1 X79.919 Y103.605 E.56805
G1 X79.753 Y104.169 E.01843
G1 X79.525 Y104.526 E.01328
G1 X79.126 Y104.911 E.01738
G1 X78.608 Y105.173 E.0182
G1 X78.251 Y105.244 E.01141
G1 X75.397 Y105.244 E.08949
G1 X74.686 Y105.004 E.02353
G1 X74.15 Y104.524 E.02256
G1 X73.925 Y104.169 E.01318
G1 X73.759 Y103.605 E.01843
G1 X73.759 Y85.488 E.56805
G1 X73.925 Y84.925 E.0184
G1 X74.009 Y84.793 E.00491
G1 X74.009 Y84.793 F10800
G1 X74.377 Y84.949
G1 F1200
G1 X74.43 Y84.824 E.00426
G1 X74.791 Y84.476 E.01572
G1 X75.444 Y84.227 E.02191
G1 X78.273 Y84.231 E.0887
G1 X78.511 Y84.286 E.00766
G1 X78.831 Y84.437 E.01109
