; generated by PrusaSlicer 2.9.0 on 2025-02-10 at 20:07:03 UTC

; 

; external perimeters extrusion width = 0.45mm
; perimeters extrusion width = 0.45mm
; infill extrusion width = 0.45mm
; solid infill extrusion width = 0.45mm
; top infill extrusion width = 0.40mm
; first layer extrusion width = 0.42mm

M73 P0 R38
M73 Q0 S38
M201 X1000 Y1000 Z200 E5000 ; sets maximum accelerations, mm/sec^2
M203 X200 Y200 Z12 E120 ; sets maximum feedrates, mm / sec
M204 S1250 T1250 ; sets acceleration (S) and retract acceleration (R), mm/sec^2
M205 X8.00 Y8.00 Z0.40 E4.50 ; sets the jerk limits, mm/sec
M205 S0 T0 ; sets the minimum extruding and travel feed rate, mm/sec

; printing object FED3_Sept2020_door.stl id:0 copy 0
; stop printing object FED3_Sept2020_door.stl id:0 copy 0

;TYPE:Custom
M862.3 P "MK3" ; printer model check
M862.1 P0.4 ; nozzle diameter check
M115 U3.9.2 ; tell printer latest fw version
G90 ; use absolute coordinates
M83 ; extruder relative mode
M104 S215 ; set extruder temp
M140 S60 ; set bed temp
M190 S60 ; wait for bed temp
M109 S215 ; wait for extruder temp
G28 W ; home all without mesh bed level
G80 ; mesh bed leveling
G1 Y-3.0 F1000.0 ; go outside print area
G92 E0.0
G1 X60.0 E9.0 F1000.0 ; intro line
G1 X100.0 E12.5 F1000.0 ; intro line
G92 E0.0
M221 S95

; Don't change E values below. Excessive value can damage the printer.
M907 E430 ; set extruder motor current
G21 ; set units to millimeters
G90 ; use absolute coordinates
M83 ; use relative distances for extrusion
M900 K0.05 ; Filament gcode LA 1.5
M900 K30 ; Filament gcode LA 1.0
M107
;LAYER_CHANGE
;Z:0.2
;HEIGHT:0.2
G1 E-.8 F2100
G1 Z.6 F10800
G1 X99.04 Y99.716
G1 Z.2
G1 E.8 F2100
M204 S1000
;TYPE:Skirt/Brim
;WIDTH:0.42
G1 F1200
G1 X119.399 Y80.407 E.87978
G1 X120.068 Y79.973 E.025
G1 X121.979 Y79.182 E.06485
G1 X122.817 Y79.015 E.02679
G1 X149.454 Y79.015 E.83518
G1 X151.001 Y79.656 E.0525
G1 X154.048 Y82.702 E.13509
G1 X154.689 Y84.25 E.05253
G1 X154.689 Y125.358 E1.28891
G1 X154.048 Y126.905 E.0525
G1 X151.001 Y129.951 E.13509
G1 X149.647 Y130.584 E.04686
G1 X130.484 Y132.284 E.6032
G1 X108.39 Y132.292 E.69274
G1 X106.957 Y131.757 E.04796
G1 X99.113 Y124.957 E.32549
G1 X95.952 Y121.805 E.13996
G1 X95.311 Y120.258 E.0525
G1 X95.311 Y104.35 E.49878
G1 X95.952 Y102.802 E.05253
G1 X98.998 Y99.758 E.13502
;WIPE_START
G1 F8640
G1 X99.04 Y99.716 E-.01371
G1 X101.511 Y97.373 E-.78629
;WIPE_END
G1 Z.6 F10800
G1 X100.24 Y102.248
G1 Z.2
G1 E.8 F2100
G1 F1200
G1 X100.926 Y101.906 E.02403
G1 X102.101 Y101.608 E.03801
G1 X113.778 Y101.591 E.36612
G1 X113.787 Y91.269 E.32364
G1 X114.044 Y89.973 E.04143
G1 X114.967 Y88.337 E.0589
G1 X120.774 Y82.564 E.25674
G1 X122.043 Y81.836 E.04587
G1 X123.505 Y81.49 E.04711
G1 X147.731 Y81.494 E.75959
G1 X148.751 Y81.688 E.03255
G1 X149.735 Y82.106 E.03352
G1 X150.928 Y83.074 E.04817
G1 X151.806 Y84.399 E.04984
G1 X152.213 Y85.941 E.05
G1 X152.213 Y123.708 E1.18416
G1 X151.504 Y125.808 E.0695
G1 X150.969 Y126.487 E.0271
M73 Q1 S38
G1 X150.322 Y127.102 E.02799
G1 X149.134 Y127.78 E.04289
G1 X147.759 Y128.117 E.04439
G1 X131.842 Y128.117 E.49907
G1 X131.236 Y128.734 E.02712
M73 P1 R38
G1 X130.401 Y129.29 E.03145
G1 X128.621 Y129.817 E.05821
G1 X110.056 Y129.817 E.58209
G1 X108.418 Y129.353 E.05338
G1 X107.477 Y128.759 E.03489
G1 X106.684 Y127.967 E.03514
G1 X106.091 Y127.028 E.03482
G1 X105.653 Y125.536 E.04875
G1 X105.656 Y123.007 E.0793
G1 X101.807 Y122.951 E.1207
G1 X100.092 Y122.304 E.05747
G1 X99.417 Y121.772 E.02695
G1 X98.801 Y121.126 E.02799
G1 X98.124 Y119.938 E.04287
G1 X97.787 Y118.563 E.04439
G1 X97.787 Y106.043 E.39256
G1 X98.104 Y104.729 E.04238
G1 X98.486 Y103.921 E.02802
G1 X99.99 Y102.373 E.06767
G1 X100.186 Y102.275 E.00687
G1 X100.186 Y102.275 F10800
G1 X100.356 Y102.611
G1 F1200
G1 X101.039 Y102.266 E.02399
G1 X102.171 Y101.979 E.03662
G1 X114.155 Y101.967 E.37575
G1 X114.164 Y91.286 E.3349
G1 X114.388 Y90.13 E.03692
G1 X115.252 Y88.586 E.05548
G1 X121.022 Y82.849 E.25512
G1 X122.205 Y82.178 E.04264
G1 X123.526 Y81.867 E.04255
G1 X147.713 Y81.871 E.75837
G1 X148.659 Y82.054 E.03021
G1 X149.561 Y82.442 E.03079
G1 X150.667 Y83.348 E.04483
G1 X151.45 Y84.526 E.04435
G1 X151.836 Y85.966 E.04674
G1 X151.836 Y123.677 E1.1824
G1 X151.188 Y125.6 E.06363
G1 X150.699 Y126.223 E.02483
G1 X150.079 Y126.813 E.02683
G1 X148.972 Y127.439 E.03987
G1 X147.736 Y127.74 E.03989
G1 X131.682 Y127.74 E.50336
G1 X131.01 Y128.431 E.03022
G1 X130.216 Y128.96 E.02991
G1 X128.594 Y129.44 E.05304
G1 X110.082 Y129.44 E.58043
G1 X108.595 Y129.019 E.04846
G1 X107.727 Y128.476 E.0321
G1 X106.99 Y127.746 E.03252
G1 X106.445 Y126.895 E.03169
G1 X106.023 Y125.456 E.04702
G1 X106.036 Y122.634 E.08848
G1 X101.907 Y122.586 E.12947
G1 X100.301 Y121.989 E.05372
G1 X99.681 Y121.502 E.02472
G1 X99.091 Y120.883 E.02681
G1 X98.465 Y119.776 E.03987
G1 X98.164 Y118.54 E.03989
G1 X98.164 Y106.066 E.39111
G1 X98.465 Y104.838 E.03964
G1 X98.813 Y104.112 E.02524
G1 X100.188 Y102.695 E.06191
G1 X100.302 Y102.638 E.004
G1 X100.302 Y102.638 F10800
G1 X100.473 Y102.973
G1 F1200
G1 X101.153 Y102.626 E.02394
G1 X102.241 Y102.35 E.03519
G1 X114.321 Y102.344 E.37876
G1 X114.541 Y101.892 E.01576
G1 X114.541 Y91.304 E.33198
G1 X114.733 Y90.286 E.03248
G1 X115.537 Y88.834 E.05204
G1 X121.27 Y83.134 E.25348
G1 X122.319 Y82.538 E.03783
G1 X123.549 Y82.244 E.03965
G1 X147.694 Y82.248 E.75705
G1 X148.565 Y82.42 E.02784
M73 P1 R37
G1 X149.386 Y82.777 E.02807
G1 X150.405 Y83.619 E.04145
G1 X151.118 Y84.707 E.04079
G1 X151.459 Y85.991 E.04165
G1 X151.459 Y123.647 E1.18068
G1 X150.871 Y125.394 E.0578
G1 X150.428 Y125.96 E.02254
G1 X149.836 Y126.524 E.02564
G1 X148.856 Y127.079 E.03531
G1 X147.713 Y127.363 E.03693
G1 X131.521 Y127.363 E.50769
G1 X130.784 Y128.129 E.03333
G1 X130.031 Y128.63 E.02836
G1 X128.567 Y129.063 E.04787
G1 X110.109 Y129.063 E.57874
G1 X108.727 Y128.665 E.04509
G1 X107.947 Y128.169 E.02898
G1 X107.271 Y127.494 E.02995
G1 X106.777 Y126.716 E.0289
G1 X106.4 Y125.431 E.04199
G1 X106.414 Y122.26 E.09943
G1 X102.006 Y122.221 E.13822
G1 X100.509 Y121.674 E.04997
G1 X99.944 Y121.232 E.02249
G1 X99.38 Y120.64 E.02564
G1 X98.825 Y119.66 E.03531
G1 X98.541 Y118.517 E.03693
G1 X98.541 Y106.09 E.38964
G1 X98.826 Y104.949 E.03687
G1 X99.139 Y104.304 E.02248
M73 Q1 S37
G1 X100.387 Y103.017 E.05621
G1 X100.42 Y103 E.00116
G1 X100.42 Y103 F10800
G1 X100.593 Y103.335
G1 F1200
G1 X101.267 Y102.986 E.0238
G1 X102.311 Y102.722 E.03376
G1 X114.519 Y102.722 E.38277
G1 X114.918 Y101.967 E.02677
M73 Q2 S37
G1 X114.918 Y91.322 E.33377
G1 X115.098 Y90.387 E.02985
M73 P2 R37
G1 X115.821 Y89.083 E.04675
G1 X121.517 Y83.42 E.25184
G1 X122.48 Y82.88 E.03462
G1 X123.571 Y82.622 E.03515
G1 X147.675 Y82.625 E.75576
G1 X148.47 Y82.785 E.02543
G1 X149.209 Y83.111 E.02533
G1 X150.14 Y83.89 E.03806
G1 X150.785 Y84.886 E.03721
G1 X151.082 Y86.015 E.0366
G1 X151.082 Y123.616 E1.17895
G1 X150.553 Y125.188 E.052
G1 X150.158 Y125.697 E.0202
G1 X149.592 Y126.235 E.02448
G1 X148.738 Y126.72 E.03079
G1 X147.689 Y126.986 E.03393
G1 X131.31 Y126.985 E.51355
G1 X130.527 Y127.852 E.03663
G1 X129.847 Y128.3 E.02553
G1 X128.54 Y128.686 E.04273
G1 X110.136 Y128.686 E.57704
G1 X108.86 Y128.311 E.0417
G1 X108.17 Y127.864 E.02578
G1 X107.554 Y127.244 E.0274
G1 X107.111 Y126.538 E.02613
G1 X106.777 Y125.405 E.03704
G1 X106.793 Y121.884 E.1104
G1 X102.102 Y121.855 E.14709
G1 X100.716 Y121.357 E.04618
G1 X100.207 Y120.962 E.0202
G1 X99.669 Y120.396 E.02448
G1 X99.184 Y119.542 E.03079
G1 X98.918 Y118.493 E.03393
G1 X98.918 Y106.114 E.38813
G1 X99.186 Y105.062 E.03404
G1 X99.464 Y104.497 E.01974
G1 X100.55 Y103.377 E.04891
G1 X100.55 Y103.377 F10800
G1 X100.79 Y103.657
G1 F1200
G1 X101.383 Y103.346 E.02099
G1 X102.335 Y103.099 E.03084
G1 X114.693 Y103.099 E.38748
G1 X115.094 Y102.506 E.02245
G1 X115.295 Y102.045 E.01577
G1 X115.295 Y91.34 E.33565
G1 X115.462 Y90.489 E.02719
G1 X116.106 Y89.332 E.04152
G1 X121.764 Y83.707 E.25015
G1 X122.639 Y83.223 E.03135
G1 X123.592 Y82.999 E.03069
G1 X147.656 Y83.002 E.75451
G1 X148.337 Y83.139 E.02178
G1 X149.032 Y83.444 E.0238
G1 X149.875 Y84.159 E.03466
G1 X150.429 Y85.013 E.03192
G1 X150.705 Y86.04 E.03334
G1 X150.705 Y123.585 E1.1772
G1 X150.235 Y124.983 E.04624
G1 X149.349 Y125.946 E.04103
G1 X148.619 Y126.361 E.02633
G1 X147.664 Y126.609 E.03094
G1 X131.084 Y126.608 E.51985
G1 X130.915 Y126.904 E.01069
G1 X130.27 Y127.575 E.02918
G1 X129.665 Y127.969 E.02264
G1 X128.513 Y128.309 E.03766
G1 X110.164 Y128.309 E.57532
G1 X108.996 Y127.958 E.03824
G1 X108.395 Y127.562 E.02257
G1 X107.838 Y126.995 E.02492
G1 X107.444 Y126.361 E.0234
G1 X107.154 Y125.379 E.0321
G1 X107.167 Y122.14 E.10156
G1 X107.326 Y121.509 E.0204
G1 X102.197 Y121.489 E.16082
G1 X100.922 Y121.04 E.04238
G1 X99.958 Y120.153 E.04107
G1 X99.542 Y119.423 E.02634
G1 X99.295 Y118.468 E.03093
G1 X99.295 Y106.139 E.38657
G1 X99.546 Y105.178 E.03114
G1 X99.788 Y104.692 E.01702
G1 X100.749 Y103.7 E.04331
G1 X100.749 Y103.7 F10800
G1 X100.994 Y103.975
G1 F1200
G1 X101.502 Y103.704 E.01805
G1 X102.361 Y103.476 E.02787
G1 X114.88 Y103.476 E.39252
G1 X115.425 Y102.686 E.03009
G1 X115.672 Y102.1 E.01994
G1 X115.672 Y91.359 E.33678
G1 X115.826 Y90.592 E.02453
G1 X116.39 Y89.581 E.0363
G1 X122.012 Y83.992 E.24856
G1 X122.752 Y83.583 E.02651
G1 X123.615 Y83.376 E.02783
G1 X147.636 Y83.379 E.75316
G1 X148.24 Y83.504 E.01934
G1 X148.852 Y83.777 E.02101
G1 X149.607 Y84.426 E.03122
G1 X150.095 Y85.191 E.02845
G1 X150.328 Y86.064 E.02833
G1 X150.328 Y123.555 E1.1755
G1 X149.917 Y124.778 E.04045
G1 X149.106 Y125.657 E.0375
G1 X148.498 Y126.004 E.02195
G1 X147.639 Y126.232 E.02787
G1 X130.855 Y126.231 E.52625
G1 X130.623 Y126.664 E.0154
M73 P3 R37
M73 Q3 S37
G1 X130.014 Y127.297 E.02754
G1 X129.484 Y127.637 E.01974
G1 X128.486 Y127.932 E.03263
G1 X110.193 Y127.932 E.57356
G1 X109.135 Y127.607 E.0347
G1 X108.622 Y127.26 E.01942
G1 X108.146 Y126.776 E.02128
G1 X107.797 Y126.225 E.02045
G1 X107.531 Y125.351 E.02864
G1 X107.544 Y122.167 E.09983
G1 X107.924 Y121.132 E.03457
G1 X102.289 Y121.122 E.17668
G1 X101.126 Y120.721 E.03857
G1 X100.247 Y119.909 E.03752
G1 X99.9 Y119.301 E.02195
G1 X99.672 Y118.443 E.02784
G1 X99.672 Y106.164 E.385
G1 X99.904 Y105.295 E.0282
G1 X100.111 Y104.888 E.01432
G1 X100.953 Y104.018 E.03796
G1 X100.953 Y104.018 F10800
G1 X101.2 Y104.292
G1 F1200
G1 X101.624 Y104.061 E.01514
G1 X102.387 Y103.853 E.0248
G1 X115.037 Y103.853 E.39663
G1 X115.758 Y102.864 E.03837
G1 X116.049 Y102.163 E.0238
G1 X116.049 Y91.379 E.33812
G1 X116.189 Y90.697 E.02183
G1 X116.675 Y89.83 E.03116
G1 X122.259 Y84.278 E.2469
G1 X122.867 Y83.943 E.02177
G1 X123.638 Y83.753 E.0249
G1 X147.616 Y83.756 E.75181
G1 X148.14 Y83.868 E.0168
G1 X148.67 Y84.108 E.01824
G1 X149.339 Y84.692 E.02784
G1 X149.739 Y85.318 E.02329
G1 X149.951 Y86.09 E.0251
G1 X149.951 Y123.524 E1.17372
G1 X149.598 Y124.575 E.03476
G1 X148.862 Y125.368 E.03392
G1 X148.375 Y125.647 E.0176
G1 X147.613 Y125.855 E.02477
G1 X130.621 Y125.854 E.53277
G1 X130.33 Y126.425 E.02009
G1 X129.788 Y126.995 E.02466
G1 X129.347 Y127.285 E.01655
G1 X128.457 Y127.555 E.02916
G1 X110.223 Y127.555 E.57171
G1 X109.278 Y127.257 E.03107
G1 X108.853 Y126.961 E.01624
G1 X108.451 Y126.554 E.01794
G1 X108.149 Y126.086 E.01746
G1 X107.909 Y125.323 E.02508
G1 X107.921 Y122.195 E.09808
G1 X108.253 Y121.323 E.02926
G1 X108.883 Y120.675 E.02834
G1 X108.7 Y120.419 E.00987
G1 X108.188 Y120.661 E.01776
G1 X107.674 Y120.755 E.01638
G1 X102.38 Y120.755 E.16599
G1 X101.328 Y120.402 E.03479
G1 X100.536 Y119.666 E.0339
G1 X100.257 Y119.178 E.01763
G1 X100.049 Y118.417 E.02474
G1 X100.049 Y106.19 E.38337
G1 X100.262 Y105.416 E.02517
G1 X100.433 Y105.086 E.01165
G1 X101.159 Y104.335 E.03275
G1 X101.159 Y104.335 F10800
G1 X101.409 Y104.607
G1 F1200
G1 X101.75 Y104.418 E.01222
G1 X102.413 Y104.23 E.02161
G1 X115.204 Y104.23 E.40105
G1 X115.845 Y103.453 E.03158
G1 X116.426 Y102.225 E.0426
G1 X116.426 Y91.399 E.33944
G1 X116.552 Y90.804 E.01907
G1 X116.959 Y90.079 E.02607
G1 X122.506 Y84.565 E.24523
G1 X122.983 Y84.302 E.01708
G1 X123.662 Y84.13 E.02196
G1 X147.595 Y84.134 E.7504
G1 X148.038 Y84.231 E.01422
G1 X148.485 Y84.438 E.01545
G1 X149.069 Y84.956 E.02448
G1 X149.385 Y85.449 E.01836
G1 X149.574 Y86.117 E.02177
G1 X149.574 Y123.494 E1.17193
G1 X149.278 Y124.374 E.02911
G1 X148.619 Y125.079 E.03026
G1 X148.249 Y125.29 E.01335
G1 X147.587 Y125.478 E.02158
G1 X130.385 Y125.477 E.53936
G1 X130.035 Y126.189 E.02488
G1 X129.558 Y126.696 E.02183
G1 X129.206 Y126.934 E.01332
G1 X128.428 Y127.178 E.02557
G1 X110.253 Y127.178 E.56986
G1 X109.423 Y126.908 E.02737
G1 X109.108 Y126.684 E.01212
G1 X108.757 Y126.332 E.01559
G1 X108.48 Y125.904 E.01598
G1 X108.278 Y125.241 E.02173
G1 X108.291 Y122.27 E.09315
G1 X108.58 Y121.515 E.02535
G1 X109.355 Y120.74 E.03436
G1 X109.812 Y120.529 E.01578
G1 X110.291 Y120.43 E.01534
G1 X127.426 Y120.431 E.53726
G1 X127.426 Y117.821 E.08183
G1 X109.688 Y117.821 E.55616
G1 X109.598 Y118.803 E.03092
G1 X109.256 Y119.463 E.02331
G1 X108.716 Y119.988 E.02361
G1 X108.091 Y120.296 E.02185
G1 X107.656 Y120.378 E.01388
G1 X102.41 Y120.378 E.16448
G1 X101.53 Y120.082 E.02911
G1 X100.825 Y119.423 E.03026
G1 X100.613 Y119.053 E.01337
G1 X100.426 Y118.39 E.0216
G1 X100.426 Y106.217 E.38168
G1 X100.753 Y105.287 E.03091
G1 X101.367 Y104.65 E.02774
G1 X101.367 Y104.65 F10800
G1 X101.62 Y104.92
G1 F1200
G1 X102.441 Y104.607 E.02755
G1 X115.341 Y104.607 E.40447
G1 X115.507 Y104.457 E.00701
M73 P4 R37
M73 Q4 S37
G1 X115.852 Y104.077 E.01609
G1 X116.424 Y103.22 E.03231
G1 X116.803 Y102.288 E.03155
G1 X116.803 Y91.417 E.34085
G1 X116.896 Y90.959 E.01465
G1 X117.244 Y90.327 E.02262
G1 X122.752 Y84.851 E.24353
G1 X123.101 Y84.661 E.01246
G1 X123.687 Y84.507 E.019
G1 X147.572 Y84.511 E.7489
G1 X148.297 Y84.766 E.0241
G1 X148.797 Y85.218 E.02113
G1 X149.031 Y85.582 E.01357
G1 X149.197 Y86.145 E.0184
G1 X149.197 Y123.463 E1.17008
G1 X148.957 Y124.174 E.02353
G1 X148.376 Y124.79 E.02655
G1 X147.559 Y125.101 E.02741
G1 X130.054 Y125.1 E.54886
G1 X129.739 Y125.953 E.02851
G1 X129.323 Y126.4 E.01915
G1 X129.06 Y126.585 E.01008
G1 X128.397 Y126.801 E.02186
G1 X110.285 Y126.801 E.56789
G1 X109.574 Y126.561 E.02353
M73 P4 R36
G1 X109.038 Y126.081 E.02256
G1 X108.813 Y125.726 E.01318
G1 X108.647 Y125.162 E.01843
G1 X108.662 Y122.343 E.08839
G1 X108.907 Y121.706 E.0214
G1 X109.546 Y121.067 E.02833
G1 X110.311 Y120.807 E.02533
G1 X127.803 Y120.808 E.54845
G1 X127.803 Y117.444 E.10548
G1 X109.309 Y117.444 E.57987
G1 X109.309 Y118.338 E.02803
G1 X109.234 Y118.702 E.01165
G1 X108.968 Y119.218 E.0182
G1 X108.52 Y119.664 E.01982
G1 X107.949 Y119.946 E.01997
G1 X107.64 Y120.001 E.00984
G1 X102.441 Y120.001 E.16301
G1 X101.73 Y119.761 E.02353
G1 X101.114 Y119.179 E.02657
G1 X100.803 Y118.362 E.02741
G1 X100.803 Y106.245 E.37992
G1 X101.071 Y105.49 E.02512
G1 X101.578 Y104.964 E.02291
G1 X101.578 Y104.964 F10800
G1 X101.835 Y105.231
G1 F1200
G1 X102.471 Y104.984 E.02139
G1 X115.485 Y104.984 E.40804
G1 X115.773 Y104.725 E.01214
G1 X116.143 Y104.317 E.01727
G1 X116.757 Y103.399 E.03463
G1 X117.18 Y102.351 E.03543
G1 X117.18 Y91.438 E.34217
G1 X117.259 Y91.065 E.01195
G1 X117.529 Y90.575 E.01754
G1 X122.96 Y85.167 E.24031
G1 X123.713 Y84.884 E.02522
G1 X147.551 Y84.888 E.74742
G1 X148.109 Y85.094 E.01865
M73 Q4 S36
G1 X148.679 Y85.719 E.02652
G1 X148.82 Y86.175 E.01497
G1 X148.82 Y123.432 E1.16817
G1 X148.635 Y123.977 E.01805
G1 X148.163 Y124.478 E.02158
G1 X147.529 Y124.724 E.02132
G1 X129.656 Y124.723 E.5604
G1 X129.61 Y125.356 E.0199
G1 X129.413 Y125.761 E.01412
G1 X128.91 Y126.238 E.02174
G1 X128.365 Y126.424 E.01806
G1 X110.316 Y126.424 E.56591
G1 X109.621 Y126.13 E.02366
G1 X109.165 Y125.589 E.02218
G1 X109.024 Y125.133 E.01497
G1 X109.033 Y122.412 E.08532
G1 X109.234 Y121.896 E.01736
G1 X109.736 Y121.394 E.02226
G1 X110.331 Y121.184 E.01978
G1 X128.18 Y121.185 E.55964
G1 X128.18 Y117.066 E.12915
G1 X108.932 Y117.066 E.60351
G1 X108.871 Y118.595 E.04798
G1 X108.649 Y119.017 E.01495
G1 X108.326 Y119.34 E.01432
G1 X107.809 Y119.594 E.01806
G1 X102.472 Y119.624 E.16734
G1 X101.927 Y119.438 E.01806
