; generated by PrusaSlicer 2.7.3+linux-x64-GTK3 on 2025-02-03 at 22:53:19 UTC

; 

; external perimeters extrusion width = 0.45mm
; perimeters extrusion width = 0.45mm
; infill extrusion width = 0.45mm
; solid infill extrusion width = 0.45mm
; top infill extrusion width = 0.40mm
; first layer extrusion width = 0.42mm

M73 P0 R265
M73 Q0 S270
M201 X1000 Y1000 Z200 E5000 ; sets maximum accelerations, mm/sec^2
M203 X200 Y200 Z12 E120 ; sets maximum feedrates, mm / sec
M204 S1250 T1250 ; sets acceleration (S) and retract acceleration (R), mm/sec^2
M205 X8.00 Y8.00 Z0.40 E4.50 ; sets the jerk limits, mm/sec
M205 S0 T0 ; sets the minimum extruding and travel feed rate, mm/sec

; printing object FED3_Sept2020_door.stl id:0 copy 0
; stop printing object FED3_Sept2020_door.stl id:0 copy 0
; printing object FED3_Sept2020_door.stl id:0 copy 1
; stop printing object FED3_Sept2020_door.stl id:0 copy 1
; printing object FED3_Sept2020_door.stl id:0 copy 2
; stop printing object FED3_Sept2020_door.stl id:0 copy 2
; printing object FED3_Sept2020_door.stl id:0 copy 3
; stop printing object FED3_Sept2020_door.stl id:0 copy 3
; printing object FED3_Sept2020_door.stl id:0 copy 4
; stop printing object FED3_Sept2020_door.stl id:0 copy 4
; printing object FED3_Sept2020_door.stl id:0 copy 5
; stop printing object FED3_Sept2020_door.stl id:0 copy 5
; printing object FED3_Sept2020_door.stl id:0 copy 6
; stop printing object FED3_Sept2020_door.stl id:0 copy 6
; printing object FED3_Sept2020_door.stl id:0 copy 7
; stop printing object FED3_Sept2020_door.stl id:0 copy 7

;TYPE:Custom
M862.3 P "MK3" ; printer model check
M862.1 P0.4 ; nozzle diameter check
M115 U3.9.2 ; tell printer latest fw version
G90 ; use absolute coordinates
M83 ; extruder relative mode
M104 S215 ; set extruder temp
M140 S60 ; set bed temp
M190 S60 ; wait for bed temp
M109 S215 ; wait for extruder temp
G28 W ; home all without mesh bed level
G80 ; mesh bed leveling
G1 Y-3.0 F1000.0 ; go outside print area
G92 E0.0
G1 X60.0 E9.0 F1000.0 ; intro line
G1 X100.0 E12.5 F1000.0 ; intro line
G92 E0.0
M221 S95

; Don't change E values below. Excessive value can damage the printer.
M907 E430 ; set extruder motor current
G21 ; set units to millimeters
G90 ; use absolute coordinates
M83 ; use relative distances for extrusion
M900 K0.05 ; Filament gcode LA 1.5
M900 K30 ; Filament gcode LA 1.0
M107
;LAYER_CHANGE
;Z:0.2
;HEIGHT:0.2
G1 E-.8 F2100
M73 Q0 S269
G1 Z.6 F10800
G1 X21.124 Y22.273
G1 Z.2
G1 E.8 F2100
M204 S1000
;TYPE:Skirt/Brim
;WIDTH:0.42
G1 F1200
G1 X39.27 Y5.063 E.78415
G1 X39.996 Y4.591 E.02715
G1 X41.907 Y3.8 E.06485
G1 X42.817 Y3.619 E.02909
G1 X229.454 Y3.619 E5.85187
G1 X231.135 Y4.315 E.05705
G1 X234.181 Y7.361 E.13506
G1 X234.877 Y9.042 E.05705
G1 X234.877 Y200.565 E6.00507
G1 X234.181 Y202.246 E.05705
G1 X231.135 Y205.292 E.13506
G1 X229.664 Y205.979 E.0509
G1 X210.291 Y207.689 E.60979
G1 X108.39 Y207.689 E3.19503
G1 X106.833 Y207.108 E.05211
M73 P0 R264
G1 X98.918 Y200.243 E.32851
G1 X18.918 Y125.036 E3.44271
G1 X15.819 Y121.939 E.13737
G1 X15.123 Y120.258 E.05705
G1 X15.123 Y29.142 E2.85688
G1 X15.819 Y27.461 E.05705
G1 X18.865 Y24.415 E.13506
G1 X21.081 Y22.314 E.09575
;WIPE_START
G1 F8640
G1 X21.124 Y22.273 E-.01372
G1 X23.595 Y19.93 E-.78628
;WIPE_END
G1 Z.6 F10800
G1 X177.787 Y30.836
G1 Z.2
G1 E.8 F2100
G1 F1200
G1 X178.104 Y29.521 E.04241
G1 X178.486 Y28.714 E.02799
G1 X179.99 Y27.165 E.06769
G1 X180.926 Y26.698 E.0328
G1 X182.101 Y26.4 E.03801
G1 X193.778 Y26.383 E.36612
G1 X193.787 Y16.061 E.32364
G1 X194.044 Y14.766 E.0414
G1 X194.967 Y13.13 E.0589
G1 X200.774 Y7.356 E.25676
G1 X202.043 Y6.628 E.04587
G1 X203.505 Y6.283 E.0471
G1 X227.731 Y6.286 E.75959
G1 X228.751 Y6.48 E.03255
G1 X229.735 Y6.899 E.03353
G1 X230.928 Y7.866 E.04815
G1 X231.806 Y9.191 E.04984
G1 X232.213 Y10.734 E.05003
G1 X232.213 Y48.5 E1.18413
G1 X231.504 Y50.6 E.0695
G1 X230.969 Y51.279 E.0271
G1 X230.322 Y51.895 E.02801
G1 X229.134 Y52.572 E.04287
G1 X227.759 Y52.91 E.0444
G1 X211.842 Y52.909 E.49907
G1 X211.236 Y53.526 E.02712
G1 X210.401 Y54.082 E.03145
G1 X208.621 Y54.61 E.05821
G1 X190.056 Y54.61 E.58209
G1 X188.418 Y54.145 E.05339
G1 X187.477 Y53.551 E.03489
G1 X186.684 Y52.76 E.03512
G1 X186.091 Y51.82 E.03485
G1 X185.653 Y50.328 E.04875
G1 X185.656 Y47.799 E.0793
G1 X181.807 Y47.743 E.1207
G1 X180.092 Y47.097 E.05746
G1 X179.417 Y46.565 E.02695
G1 X178.801 Y45.918 E.02801
G1 X178.124 Y44.731 E.04285
G1 X177.787 Y43.355 E.04442
G1 X177.787 Y30.896 E.39064
G1 X177.787 Y30.896 F10800
G1 X178.164 Y30.896
G1 F1200
G1 X178.164 Y30.859 E.00116
G1 X178.465 Y29.631 E.03964
G1 X178.813 Y28.904 E.02527
G1 X180.188 Y27.487 E.06191
G1 X181.039 Y27.058 E.02988
G1 X182.171 Y26.771 E.03662
G1 X194.155 Y26.76 E.37575
G1 X194.164 Y16.079 E.3349
G1 X194.388 Y14.923 E.03692
G1 X195.252 Y13.378 E.0555
G1 X201.022 Y7.642 E.2551
G1 X202.205 Y6.97 E.04266
G1 X203.526 Y6.66 E.04254
G1 X227.713 Y6.663 E.75837
G1 X228.659 Y6.846 E.03021
G1 X229.561 Y7.234 E.03079
G1 X230.667 Y8.14 E.04483
G1 X231.45 Y9.319 E.04438
G1 X231.836 Y10.759 E.04674
G1 X231.836 Y48.47 E1.1824
G1 X231.188 Y50.393 E.06363
G1 X230.699 Y51.016 E.02483
G1 X230.079 Y51.605 E.02681
G1 X228.972 Y52.231 E.03987
G1 X227.736 Y52.533 E.03989
G1 X211.682 Y52.532 E.50336
G1 X211.01 Y53.224 E.03024
G1 X210.216 Y53.752 E.0299
G1 X208.594 Y54.233 E.05305
G1 X190.082 Y54.233 E.58043
G1 X188.595 Y53.811 E.04846
G1 X187.727 Y53.268 E.0321
G1 X186.99 Y52.538 E.03252
G1 X186.445 Y51.688 E.03166
G1 X186.023 Y50.249 E.04702
G1 X186.036 Y47.426 E.08851
M73 Q0 S268
G1 X181.907 Y47.379 E.12947
G1 X180.301 Y46.782 E.05372
G1 X179.681 Y46.295 E.02472
G1 X179.091 Y45.675 E.02683
G1 X178.465 Y44.568 E.03987
G1 X178.164 Y43.332 E.03989
G1 X178.164 Y30.956 E.38804
G1 X178.164 Y30.956 F10800
G1 X178.541 Y30.956
G1 F1200
G1 X178.541 Y30.882 E.00232
G1 X178.826 Y29.742 E.03684
G1 X179.139 Y29.096 E.02251
G1 X180.387 Y27.809 E.05621
G1 X181.153 Y27.419 E.02695
G1 X182.241 Y27.143 E.03519
G1 X194.321 Y27.137 E.37876
G1 X194.541 Y26.684 E.01579
G1 X194.541 Y16.096 E.33198
G1 X194.733 Y15.078 E.03248
G1 X195.537 Y13.627 E.05201
G1 X201.27 Y7.927 E.25348
G1 X202.319 Y7.33 E.03784
G1 X203.549 Y7.037 E.03964
G1 X227.694 Y7.04 E.75705
G1 X228.565 Y7.212 E.02784
G1 X229.386 Y7.569 E.02807
G1 X230.405 Y8.412 E.04147
G1 X231.118 Y9.499 E.04076
G1 X231.459 Y10.783 E.04165
G1 X231.459 Y48.439 E1.18068
G1 X230.871 Y50.186 E.0578
G1 X230.428 Y50.752 E.02254
G1 X229.836 Y51.316 E.02564
G1 X228.856 Y51.871 E.03531
G1 X227.713 Y52.155 E.03693
G1 X211.521 Y52.155 E.50769
G1 X210.784 Y52.921 E.03333
G1 X210.031 Y53.423 E.02838
G1 X208.567 Y53.855 E.04786
G1 X190.109 Y53.855 E.57874
G1 X188.727 Y53.457 E.04509
G1 X187.947 Y52.962 E.02897
G1 X187.271 Y52.286 E.02997
G1 X186.777 Y51.508 E.0289
G1 X186.4 Y50.223 E.04199
G1 X186.414 Y47.052 E.09943
G1 X182.006 Y47.013 E.13822
G1 X180.509 Y46.466 E.04997
G1 X179.944 Y46.025 E.02247
G1 X179.38 Y45.432 E.02566
G1 X178.825 Y44.452 E.03531
G1 X178.541 Y43.309 E.03693
G1 X178.541 Y31.016 E.38544
G1 X178.541 Y31.016 F10800
G1 X178.918 Y31.016
G1 F1200
G1 X178.918 Y30.906 E.00345
G1 X179.186 Y29.855 E.03401
G1 X179.464 Y29.289 E.01977
G1 X180.588 Y28.129 E.05064
G1 X181.267 Y27.779 E.02395
G1 X182.311 Y27.514 E.03377
G1 X194.519 Y27.514 E.38277
G1 X194.918 Y26.759 E.02677
G1 X194.918 Y16.114 E.33377
G1 X195.098 Y15.179 E.02985
G1 X195.821 Y13.875 E.04675
G1 X201.517 Y8.213 E.25182
G1 X202.48 Y7.672 E.03463
G1 X203.571 Y7.414 E.03515
G1 X227.675 Y7.418 E.75576
G1 X228.47 Y7.578 E.02543
G1 X229.209 Y7.903 E.02531
G1 X230.14 Y8.682 E.03806
G1 X230.785 Y9.678 E.03721
G1 X231.082 Y10.807 E.0366
G1 X231.082 Y48.408 E1.17895
G1 X230.553 Y49.98 E.052
G1 X230.158 Y50.489 E.0202
G1 X229.592 Y51.027 E.02448
G1 X228.738 Y51.512 E.03079
G1 X227.689 Y51.778 E.03393
G1 X211.31 Y51.778 E.51355
G1 X210.527 Y52.645 E.03663
G1 X209.847 Y53.092 E.02551
G1 X208.54 Y53.478 E.04273
G1 X190.136 Y53.478 E.57704
G1 X188.86 Y53.103 E.0417
G1 X188.17 Y52.657 E.02576
G1 X187.554 Y52.036 E.02743
G1 X187.111 Y51.33 E.02613
G1 X186.777 Y50.197 E.03704
G1 X186.793 Y46.677 E.11037
G1 X182.102 Y46.647 E.14709
G1 X180.716 Y46.149 E.04618
G1 X180.207 Y45.754 E.0202
G1 X179.669 Y45.189 E.02446
G1 X179.184 Y44.334 E.03082
G1 X178.918 Y43.285 E.03393
G1 X178.918 Y31.076 E.3828
G1 X178.918 Y31.076 F10800
G1 X179.295 Y31.076
G1 F1200
G1 X179.295 Y30.931 E.00455
G1 X179.546 Y29.97 E.03114
G1 X179.788 Y29.484 E.01702
G1 X180.79 Y28.449 E.04517
G1 X181.383 Y28.138 E.02099
G1 X182.335 Y27.891 E.03084
G1 X194.693 Y27.891 E.38748
G1 X195.094 Y27.298 E.02245
G1 X195.295 Y26.838 E.01574
G1 X195.295 Y16.133 E.33565
G1 X195.462 Y15.281 E.02722
G1 X196.106 Y14.124 E.04152
G1 X201.764 Y8.499 E.25015
G1 X202.639 Y8.015 E.03135
G1 X203.592 Y7.791 E.03069
G1 X227.656 Y7.795 E.75451
G1 X228.337 Y7.931 E.02177
G1 X229.032 Y8.237 E.02381
G1 X229.875 Y8.951 E.03464
G1 X230.429 Y9.805 E.03192
G1 X230.705 Y10.832 E.03334
G1 X230.705 Y48.378 E1.17723
G1 X230.235 Y49.775 E.04621
G1 X229.349 Y50.738 E.04103
G1 X228.619 Y51.154 E.02634
G1 X227.664 Y51.401 E.03093
G1 X211.084 Y51.401 E.51985
G1 X210.915 Y51.697 E.01069
G1 X210.27 Y52.367 E.02916
G1 X209.665 Y52.761 E.02264
G1 X208.513 Y53.101 E.03766
G1 X190.164 Y53.101 E.57532
G1 X188.996 Y52.751 E.03823
G1 X188.395 Y52.354 E.02258
G1 X187.838 Y51.788 E.0249
G1 X187.444 Y51.153 E.02343
G1 X187.154 Y50.171 E.0321
G1 X187.167 Y46.932 E.10156
G1 X187.326 Y46.301 E.0204
G1 X182.197 Y46.281 E.16082
G1 X180.922 Y45.832 E.04238
G1 X179.958 Y44.945 E.04107
G1 X179.542 Y44.215 E.02634
G1 X179.295 Y43.261 E.0309
G1 X179.295 Y31.136 E.38017
G1 X179.295 Y31.136 F10800
G1 X179.672 Y31.136
G1 F1200
G1 X179.672 Y30.956 E.00564
G1 X179.904 Y30.088 E.02817
G1 X180.111 Y29.68 E.01434
G1 X180.994 Y28.767 E.03982
G1 X181.502 Y28.496 E.01805
G1 X182.361 Y28.268 E.02787
G1 X194.88 Y28.268 E.39252
G1 X195.425 Y27.479 E.03007
M73 P0 R263
G1 X195.672 Y26.892 E.01997
G1 X195.672 Y16.152 E.33675
G1 X195.826 Y15.385 E.02453
G1 X196.39 Y14.373 E.03633
G1 X202.012 Y8.785 E.24854
G1 X202.752 Y8.375 E.02653
G1 X203.615 Y8.168 E.02783
G1 X227.636 Y8.172 E.75316
G1 X228.24 Y8.296 E.01933
G1 X228.852 Y8.569 E.02101
G1 X229.607 Y9.218 E.03122
G1 X230.095 Y9.983 E.02845
G1 X230.328 Y10.857 E.02836
G1 X230.328 Y48.347 E1.17547
G1 X229.917 Y49.571 E.04048
G1 X229.106 Y50.449 E.03748
G1 X228.498 Y50.796 E.02195
G1 X227.639 Y51.024 E.02787
G1 X210.855 Y51.024 E.52625
G1 X210.623 Y51.456 E.01537
G1 X210.014 Y52.089 E.02754
G1 X209.484 Y52.429 E.01974
G1 X208.486 Y52.724 E.03263
G1 X190.193 Y52.724 E.57356
G1 X189.135 Y52.399 E.0347
G1 X188.622 Y52.053 E.0194
G1 X188.146 Y51.568 E.02131
G1 X187.797 Y51.018 E.02042
G1 X187.531 Y50.143 E.02867
G1 X187.544 Y46.959 E.09983
G1 X187.924 Y45.925 E.03454
G1 X182.289 Y45.914 E.17668
G1 X181.126 Y45.514 E.03856
G1 X180.247 Y44.702 E.03752
G1 X179.9 Y44.094 E.02195
G1 X179.672 Y43.236 E.02784
G1 X179.672 Y31.196 E.37751
G1 X179.672 Y31.196 F10800
G1 X180.049 Y31.196
G1 F1200
G1 X180.049 Y30.982 E.00671
G1 X180.262 Y30.208 E.02517
G1 X180.433 Y29.878 E.01165
G1 X181.2 Y29.084 E.03461
G1 X181.624 Y28.854 E.01512
G1 X182.387 Y28.645 E.0248
G1 X195.037 Y28.645 E.39663
G1 X195.758 Y27.657 E.03835
G1 X196.049 Y26.955 E.02383
G1 X196.049 Y16.171 E.33812
G1 X196.189 Y15.489 E.02183
G1 X196.675 Y14.622 E.03116
G1 X202.259 Y9.071 E.24687
G1 X202.867 Y8.735 E.02178
G1 X203.638 Y8.545 E.0249
G1 X227.616 Y8.549 E.75181
G1 X228.14 Y8.66 E.01679
G1 X228.67 Y8.901 E.01826
G1 X229.339 Y9.484 E.02782
G1 X229.739 Y10.111 E.02332
G1 X229.951 Y10.883 E.0251
G1 X229.951 Y48.317 E1.17372
G1 X229.598 Y49.368 E.03476
G1 X228.862 Y50.16 E.0339
G1 X228.375 Y50.439 E.0176
G1 X227.613 Y50.647 E.02477
G1 X210.621 Y50.646 E.53277
G1 X210.33 Y51.218 E.02012
G1 X209.788 Y51.787 E.02464
G1 X209.347 Y52.077 E.01655
G1 X208.457 Y52.347 E.02916
G1 X190.223 Y52.347 E.57171
G1 X189.278 Y52.049 E.03107
G1 X188.853 Y51.754 E.01622
G1 X188.451 Y51.347 E.01794
G1 X188.149 Y50.879 E.01746
G1 X187.909 Y50.115 E.02511
G1 X187.921 Y46.987 E.09808
G1 X188.253 Y46.116 E.02923
G1 X188.883 Y45.468 E.02834
G1 X188.7 Y45.211 E.00989
G1 X188.188 Y45.453 E.01776
G1 X187.674 Y45.547 E.01638
G1 X182.38 Y45.547 E.16599
G1 X181.328 Y45.194 E.03479
G1 X180.536 Y44.458 E.0339
G1 X180.257 Y43.971 E.0176
G1 X180.049 Y43.21 E.02474
G1 X180.049 Y31.256 E.37481
G1 X180.049 Y31.256 F10800
G1 X180.426 Y31.256
G1 F1200
G1 X180.426 Y31.009 E.00774
G1 X180.753 Y30.079 E.03091
G1 X181.409 Y29.4 E.0296
G1 X181.75 Y29.21 E.01224
G1 X182.413 Y29.022 E.02161
G1 X195.204 Y29.022 E.40105
G1 X195.845 Y28.246 E.03156
G1 X196.426 Y27.018 E.0426
G1 X196.426 Y16.191 E.33947
G1 X196.552 Y15.596 E.01907
G1 X196.959 Y14.871 E.02607
G1 X202.506 Y9.357 E.24523
G1 X202.983 Y9.095 E.01706
G1 X203.662 Y8.922 E.02197
G1 X227.595 Y8.926 E.7504
G1 X228.038 Y9.024 E.01423
G1 X228.485 Y9.23 E.01543
G1 X229.069 Y9.749 E.0245
G1 X229.385 Y10.241 E.01833
G1 X229.574 Y10.91 E.0218
G1 X229.574 Y48.286 E1.1719
G1 X229.278 Y49.166 E.02911
G1 X228.619 Y49.872 E.03028
G1 X228.249 Y50.083 E.01335
G1 X227.587 Y50.27 E.02157
G1 X210.385 Y50.269 E.53936
G1 X210.035 Y50.981 E.02488
G1 X209.558 Y51.488 E.02183
G1 X209.206 Y51.726 E.01332
G1 X208.428 Y51.97 E.02557
G1 X190.253 Y51.97 E.56986
G1 X189.423 Y51.7 E.02737
G1 X189.108 Y51.476 E.01212
G1 X188.757 Y51.125 E.01556
G1 X188.48 Y50.697 E.01598
G1 X188.278 Y50.033 E.02176
G1 X188.291 Y47.062 E.09315
G1 X188.58 Y46.308 E.02532
G1 X189.355 Y45.532 E.03439
G1 X189.812 Y45.321 E.01578
G1 X190.291 Y45.222 E.01534
G1 X207.426 Y45.223 E.53726
G1 X207.426 Y42.613 E.08183
G1 X189.688 Y42.613 E.55616
G1 X189.598 Y43.595 E.03092
G1 X189.256 Y44.256 E.02333
G1 X188.716 Y44.78 E.02359
G1 X188.091 Y45.088 E.02185
G1 X187.656 Y45.17 E.01388
G1 X182.41 Y45.17 E.16448
G1 X181.53 Y44.874 E.02911
G1 X180.825 Y44.215 E.03026
G1 X180.613 Y43.845 E.01337
G1 X180.426 Y43.183 E.02157
G1 X180.426 Y31.316 E.37208
G1 X180.426 Y31.316 F10800
G1 X180.803 Y31.316
G1 F1200
G1 X180.803 Y31.037 E.00875
G1 X181.071 Y30.283 E.02509
G1 X181.62 Y29.713 E.02481
G1 X182.441 Y29.399 E.02756
G1 X195.341 Y29.399 E.40447
G1 X195.507 Y29.25 E.00699
G1 X195.852 Y28.869 E.01612
G1 X196.424 Y28.013 E.03228
G1 X196.803 Y27.08 E.03158
G1 X196.803 Y16.21 E.34082
G1 X196.896 Y15.751 E.01468
G1 X197.244 Y15.119 E.02262
G1 X202.752 Y9.643 E.24353
G1 X203.101 Y9.453 E.01246
G1 X203.687 Y9.299 E.019
G1 X227.572 Y9.303 E.7489
G1 X228.297 Y9.559 E.02411
M73 Q0 S267
G1 X228.797 Y10.011 E.02113
G1 X229.031 Y10.374 E.01354
G1 X229.197 Y10.938 E.01843
G1 X229.197 Y48.255 E1.17005
G1 X228.957 Y48.967 E.02356
G1 X228.376 Y49.583 E.02655
G1 X227.559 Y49.893 E.0274
G1 X210.054 Y49.892 E.54886
G1 X209.739 Y50.746 E.02854
G1 X209.323 Y51.192 E.01912
G1 X209.06 Y51.377 E.01008
G1 X208.397 Y51.593 E.02186
G1 X190.285 Y51.593 E.56789
G1 X189.574 Y51.353 E.02353
G1 X189.038 Y50.873 E.02256
G1 X188.813 Y50.518 E.01318
G1 X188.647 Y49.954 E.01843
G1 X188.662 Y47.135 E.08839
G1 X188.907 Y46.498 E.0214
G1 X189.546 Y45.859 E.02833
G1 X190.311 Y45.599 E.02533
G1 X207.803 Y45.6 E.54845
G1 X207.803 Y42.236 E.10548
G1 X189.309 Y42.236 E.57987
G1 X189.309 Y43.13 E.02803
G1 X189.234 Y43.494 E.01165
G1 X188.968 Y44.011 E.01823
G1 X188.52 Y44.456 E.0198
G1 X187.949 Y44.738 E.01997
G1 X187.64 Y44.793 E.00984
G1 X182.441 Y44.793 E.16301
G1 X181.73 Y44.553 E.02353
G1 X181.114 Y43.972 E.02655
G1 X180.803 Y43.155 E.02741
G1 X180.803 Y31.376 E.36932
G1 X180.803 Y31.376 F10800
G1 X181.18 Y31.376
G1 F1200
G1 X181.18 Y31.067 E.00969
G1 X181.386 Y30.491 E.01918
G1 X181.835 Y30.023 E.02034
G1 X182.471 Y29.776 E.02139
G1 X195.485 Y29.776 E.40804
G1 X195.773 Y29.517 E.01214
G1 X196.143 Y29.109 E.01727
G1 X196.757 Y28.191 E.03463
G1 X197.18 Y27.143 E.03543
G1 X197.18 Y16.23 E.34217
G1 X197.259 Y15.857 E.01195
G1 X197.529 Y15.367 E.01754
G1 X202.96 Y9.959 E.24031
G1 X203.713 Y9.676 E.02522
G1 X227.551 Y9.68 E.74742
G1 X228.109 Y9.887 E.01866
G1 X228.679 Y10.512 E.02652
G1 X228.82 Y10.967 E.01494
G1 X228.82 Y48.224 E1.16817
G1 X228.635 Y48.769 E.01805
G1 X228.163 Y49.27 E.02158
